pifilm/data/looks/starter/pifilm.cube
TITLE "pifilm"
LUT_3D_SIZE 9
DOMAIN_MIN 0.0 0.0 0.0
DOMAIN_MAX 1.0 1.0 1.0
0.000000 0.000000 0.000000
0.063803 0.000000 0.000000
0.148106 0.000000 0.000000
0.270795 0.000000 0.000000
0.416780 0.000000 0.000000
0.580669 0.000008 0.000004
0.754698 0.000010 0.000005
0.930238 0.000037 0.000020
0.999998 0.315557 0.251034
0.000000 0.069139 0.000000
0.071789 0.071788 0.000000
0.166076 0.075462 0.000000
0.288509 0.088787 0.000000
0.432544 0.103115 0.000000
0.593578 0.116675 0.000000
0.764363 0.128218 0.000009
0.936660 0.136936 0.000003
0.999998 0.352265 0.264134
0.000000 0.182047 0.000000
0.087677 0.186767 0.000000
0.197379 0.197378 0.000000
0.322582 0.212817 0.000000
0.464640 0.230565 0.000000
0.620679 0.248065 0.000010
0.784916 0.263227 0.000000
0.950203 0.274667 0.000012
0.999992 0.428280 0.295211
0.000000 0.336706 0.000000
0.110512 0.340392 0.000000
0.231563 0.349007 0.000000
0.362135 0.362136 0.000005
0.503646 0.377824 0.000000
0.654493 0.393649 0.000000
0.810592 0.407365 0.000000
0.966462 0.417295 0.000042
0.999996 0.529304 0.343694
0.000004 0.509993 0.000004
0.129024 0.512387 0.000015
0.259923 0.518052 0.000019
0.395774 0.526814 0.000000
0.537345 0.537346 0.000015
0.683559 0.547795 0.000006
0.831632 0.556281 0.000008
0.977694 0.561290 0.000062
0.999994 0.638706 0.403345
0.000023 0.683124 0.000019
0.140703 0.684274 0.000030
0.277802 0.686972 0.000031
0.416760 0.691033 0.000040
0.557622 0.695598 0.000052
0.699426 0.699426 0.000016
0.840218 0.701209 0.000002
0.977390 0.699867 0.000012
0.999998 0.745180 0.465315
0.000013 0.839697 0.000010
0.145116 0.839846 0.000064
0.284153 0.840116 0.000053
0.423201 0.840228 0.000048
0.561793 0.839621 0.000082
0.698960 0.837553 0.000090
0.833267 0.833267 0.000014
0.963001 0.826173 0.000000
0.999996 0.842346 0.520088
0.000016 0.970304 0.000012
0.143368 0.969787 0.000051
0.280657 0.968430 0.000084
0.417020 0.965875 0.000021
0.551768 0.961747 0.000000
0.683976 0.955654 0.000074
0.812557 0.947269 0.000046
0.936418 0.936419 0.000106
0.999999 0.928733 0.556876
0.615906 0.999997 0.585728
0.625118 0.999997 0.587015
0.647574 0.999997 0.590261
0.684528 1.000000 0.595950
0.734125 0.999999 0.604409
0.793172 0.999999 0.616064
0.858204 0.999999 0.632200
0.925677 0.999999 0.657382
0.989368 1.000000 0.711987
0.000000 0.000645 0.056350
0.065304 0.000000 0.065306
0.151085 0.000000 0.066618
0.273576 0.000000 0.082538
0.419195 0.000000 0.098789
0.582619 0.000010 0.113784
0.756150 0.000017 0.126379
0.931202 0.000042 0.135887
0.999998 0.316728 0.290153
0.000000 0.070132 0.070132
0.079038 0.079038 0.079038
0.198770 0.054419 0.062472
0.338672 0.000000 0.041549
0.472913 0.000000 0.053622
0.627163 0.000008 0.064582
0.792771 0.000031 0.073718
0.960855 0.000034 0.080593
0.999999 0.353247 0.301338
0.000000 0.183740 0.085892
0.037051 0.194339 0.046055
0.195321 0.193364 0.037051
0.354604 0.198028 0.000000
0.504422 0.198826 0.000000
0.661358 0.202102 0.000000
0.823571 0.205985 0.000000
0.985653 0.208890 0.000014
0.999995 0.428958 0.328324
0.000001 0.338009 0.109516
0.000000 0.352003 0.026419
0.209596 0.358206 0.000000
0.367286 0.364479 0.000000
0.521483 0.372244 0.000007
0.678412 0.380215 0.000003
0.836803 0.386902 0.000026
0.992753 0.390981 0.000000
0.999992 0.529697 0.371482
0.000000 0.510837 0.128513
0.000017 0.521297 0.035403
0.223407 0.526793 0.000007
0.386280 0.532395 0.000008
0.541094 0.538891 0.000016
0.694857 0.544892 0.000000
0.847140 0.548972 0.000006
0.995230 0.549962 0.000002
0.999995 0.638859 0.425847
0.000038 0.683529 0.140504
0.000035 0.691156 0.041787
0.233079 0.694340 0.000005
0.398803 0.696755 0.000014
0.552595 0.699112 0.000011
0.702092 0.700353 0.000026
0.847689 0.699395 0.000064
0.987778 0.695372 0.000000
0.999996 0.745150 0.483397
0.000058 0.839751 0.145085
0.000000 0.845142 0.044363
0.235222 0.846074 0.000000
0.400472 0.845261 0.000066
0.551434 0.843381 0.000024
0.696005 0.839764 0.000046
0.835135 0.833762 0.000054
0.968066 0.824906 0.000068
0.999997 0.842184 0.534903
0.000047 0.970125 0.143425
0.000107 0.973858 0.043847
0.230300 0.973170 0.000080
0.391913 0.970071 0.000108
0.538355 0.965183 0.000000
0.677522 0.958141 0.000055
0.810708 0.948671 0.000042
0.937751 0.936664 0.000021
0.999998 0.928484 0.569777
0.615860 0.999999 0.595831
0.625069 0.999999 0.597052
0.647511 1.000000 0.600126
0.684466 0.999999 0.605533
0.734060 0.999998 0.613550
0.793120 0.999999 0.624583
0.858206 0.999999 0.639862
0.925805 1.000000 0.663769
0.989770 1.000000 0.716281
0.000000 0.005667 0.110450
0.059085 0.000000 0.138322
0.158058 0.000000 0.158059
0.280353 0.000000 0.182865
0.425161 0.000000 0.208872
0.587477 0.000000 0.233169
0.759776 0.000000 0.253702
0.933609 0.000000 0.269220
0.999991 0.320030 0.367054
0.000000 0.066647 0.151146
0.073464 0.059740 0.206533
0.198268 0.045726 0.200721
0.339578 0.000000 0.201302
0.476696 0.000000 0.208554
0.630975 0.000000 0.223424
0.795811 0.000000 0.238376
0.962901 0.000000 0.250348
0.999998 0.356029 0.375589
0.000000 0.187917 0.187917
0.037051 0.194057 0.194834
0.185000 0.185000 0.185000
0.349445 0.188699 0.190907
0.536023 0.166667 0.187468
0.711137 0.111674 0.173531
0.882068 0.000008 0.160409
0.999998 0.176484 0.219452
0.999994 0.430921 0.396559
0.000000 0.341265 0.226070
0.000000 0.354210 0.212653
0.181154 0.349968 0.184531
0.351279 0.349864 0.180782
0.546139 0.363846 0.164973
0.720971 0.352173 0.144233
0.896003 0.329332 0.105967
0.999996 0.384220 0.228227
0.999995 0.530862 0.431053
0.000022 0.512942 0.257115
0.000000 0.523013 0.232853
0.108730 0.543480 0.143014
0.361573 0.544039 0.130598
0.547853 0.542326 0.107713
0.723804 0.536075 0.061000
0.891500 0.525047 0.000000
0.999997 0.546963 0.229359
0.999998 0.639373 0.475932
0.000020 0.684537 0.276707
0.000051 0.691979 0.247025
0.000035 0.711027 0.104476
0.333718 0.713311 0.000034
0.535339 0.709114 0.000024
0.708686 0.702754 0.000015
0.868110 0.693838 0.000045
1.000000 0.689638 0.176248
0.999999 0.745164 0.524834
0.000012 0.839879 0.284055
0.000011 0.845172 0.251823
0.000052 0.858656 0.109592
0.322580 0.859252 0.000044
0.519430 0.853788 0.000020
0.686806 0.845831 0.000053
0.839784 0.835048 0.000065
0.981546 0.821304 0.000085
0.999999 0.841839 0.569570
0.000121 0.969665 0.281062
0.000000 0.973349 0.248123
0.000104 0.982718 0.109263
0.308227 0.981465 0.000020
0.498345 0.974494 0.000000
0.658911 0.964865 0.000038
0.805264 0.952447 0.000029
0.941081 0.937303 0.000036
0.999999 0.927899 0.600333
0.615833 0.999997 0.620374
0.625021 0.999999 0.621443
0.647439 0.999998 0.624148
0.684348 1.000000 0.628881
0.733921 0.999998 0.635897
0.793001 1.000000 0.645518
0.858206 0.999999 0.658840
0.926103 1.000000 0.679778
0.990741 1.000000 0.727264
0.000000 0.016125 0.198822
0.067291 0.000000 0.237147
0.168763 0.000000 0.260471
0.291347 0.000000 0.291347
0.435121 0.000000 0.324733
0.595689 0.000000 0.356464
0.765930 0.000024 0.383512
0.937684 0.000034 0.403986
0.999996 0.326668 0.465266
0.000000 0.073351 0.251668
0.079802 0.000000 0.352099
0.204696 0.000000 0.348061
0.337866 0.000000 0.342107
0.480907 0.000000 0.349124
0.636373 0.000007 0.365382
0.800447 0.000000 0.383231
0.966089 0.000000 0.398018
0.999995 0.361708 0.471607
0.000000 0.194841 0.297240
0.000000 0.196303 0.359670
0.194552 0.190110 0.352370
0.349938 0.186157 0.351411
0.536897 0.164932 0.370098
0.711697 0.113825 0.368460
0.883707 0.000006 0.365907
0.999998 0.182363 0.389183
0.999997 0.435018 0.487288
0.000000 0.346798 0.346798
0.000000 0.357213 0.358281
0.178463 0.350411 0.351062
0.329038 0.329038 0.329038
0.524195 0.348432 0.349455
0.720439 0.354294 0.363094
0.895146 0.331840 0.354194
0.999998 0.385913 0.394950
0.999999 0.533416 0.513459
0.000006 0.516548 0.387821
0.000000 0.525709 0.383148
0.092705 0.545342 0.363691
0.344378 0.524336 0.345953
0.524294 0.523363 0.343201
0.722071 0.537585 0.346677
0.893593 0.524038 0.331668
0.999996 0.547123 0.395575
0.999995 0.640659 0.548214
0.000047 0.686246 0.413732
0.000053 0.693282 0.401508
0.000047 0.711287 0.357752
0.320982 0.715681 0.333769
0.528137 0.711826 0.323889
0.708518 0.704019 0.308276
0.878345 0.690368 0.284288
1.000000 0.688806 0.367537
0.999999 0.745464 0.586919
0.000000 0.840057 0.423104
0.000087 0.845145 0.407139
0.000062 0.858123 0.355442
0.231782 0.869756 0.270499
0.483049 0.863072 0.253103
0.673088 0.852437 0.225757
0.844337 0.836571 0.182019
0.999999 0.815428 0.165911
0.999998 0.841434 0.623044
0.000110 0.968823 0.418389
0.000056 0.972400 0.400771
0.000009 0.981510 0.346242
0.000025 0.997852 0.169755
0.405179 0.991520 0.089232
0.617271 0.977934 0.044077
0.792365 0.960054 0.000055
0.946822 0.938492 0.000021
1.000000 0.927023 0.648336
0.615989 0.999998 0.660524
0.625146 0.999999 0.661386
0.647489 0.999997 0.663561
0.684294 0.999999 0.667347
0.733781 0.999998 0.672929
0.792850 0.999999 0.680528
0.858192 1.000000 0.690963
0.926541 1.000000 0.707464
0.992300 1.000000 0.746972
0.000000 0.036845 0.302290
0.076895 0.000000 0.351679
0.182110 0.000000 0.376465
0.305746 0.000000 0.410616
0.448577 0.000000 0.448577
0.606986 0.000000 0.485297
0.774473 0.000012 0.516873
0.943332 0.000000 0.540779
0.999996 0.337747 0.571385
0.000000 0.081686 0.366573
0.087879 0.000000 0.449463
0.206316 0.000000 0.461610
0.339725 0.000000 0.474285
0.486079 0.000000 0.489415
0.642871 0.000000 0.508386
0.806202 0.000034 0.527856
0.970069 0.000034 0.543801
0.999993 0.371294 0.576053
0.000000 0.204133 0.416546
0.000000 0.170838 0.541103
0.210509 0.170793 0.546388
0.373090 0.167273 0.545845
0.540178 0.148447 0.546547
0.713743 0.098260 0.547480
0.883069 0.000000 0.545322
0.999999 0.188131 0.546544
0.999999 0.442122 0.587616
0.000000 0.354472 0.473506
0.000006 0.360291 0.504553
0.172530 0.365419 0.547729
0.350986 0.348877 0.525521
0.524617 0.347235 0.525545
0.720676 0.352831 0.546719
0.894527 0.331021 0.542117
0.999996 0.387500 0.550021
0.999994 0.538050 0.606998
0.000000 0.521595 0.521595
0.000000 0.529129 0.529960
0.077439 0.545406 0.547885
0.342822 0.524350 0.524779
0.500000 0.500000 0.500000
0.697193 0.519908 0.520525
0.891453 0.523833 0.529162
0.999997 0.546830 0.549504
0.999995 0.643220 0.632922
0.000000 0.688607 0.551914
0.000020 0.694918 0.549940
0.000014 0.710955 0.540632
0.313937 0.715645 0.532144
0.512700 0.692550 0.513713
0.689013 0.688295 0.508401
0.874780 0.689754 0.500800
1.000000 0.687082 0.529328
1.000000 0.746415 0.662089
0.000086 0.840210 0.562198
0.000003 0.844946 0.554951
0.000057 0.856998 0.532202
0.216914 0.868909 0.495023
0.476263 0.862107 0.484936
0.667835 0.851359 0.470082
0.839561 0.835409 0.449185
0.998086 0.813504 0.427755
0.999999 0.841224 0.689618
0.000082 0.967508 0.555211
0.000006 0.970902 0.545336
0.000084 0.979543 0.516397
0.000072 0.995066 0.445884
0.397773 0.989601 0.420669
0.611867 0.976078 0.409160
0.787134 0.958585 0.394559
0.943163 0.937130 0.376946
1.000000 0.926039 0.709238
0.616666 0.999999 0.714117
0.625752 1.000000 0.714754
0.647931 1.000000 0.716350
0.684523 0.999999 0.719121
0.733784 1.000000 0.723139
0.792729 1.000000 0.728517
0.858158 0.999999 0.735763
0.927016 1.000000 0.747171
0.994274 1.000000 0.776733
0.000000 0.067349 0.420712
0.087182 0.000000 0.482133
0.196970 0.000000 0.506770
0.322374 0.000002 0.541778
0.464556 0.000000 0.581574
0.620636 0.000003 0.620636
0.784870 0.000000 0.654456
0.950155 0.000034 0.679953
0.999995 0.353910 0.679037
0.000000 0.090930 0.496549
0.097107 0.000000 0.567159
0.214748 0.000000 0.584669
0.347287 0.000008 0.606942
0.493824 0.000010 0.630289
0.650594 0.000000 0.653333
0.812715 0.000000 0.674218
0.974416 0.000050 0.690269
1.000000 0.385448 0.682359
0.000000 0.215102 0.547209
0.044890 0.108006 0.724698
0.224618 0.117377 0.724150
0.381976 0.120009 0.724298
0.546283 0.103766 0.725459
0.717606 0.038010 0.726709
0.879834 0.000007 0.718093
1.000000 0.192712 0.700675
0.999994 0.452890 0.690594
0.000008 0.363840 0.607349
0.000004 0.362262 0.657231
0.179304 0.354689 0.726748
0.374393 0.356641 0.727300
0.549081 0.354670 0.727630
0.722054 0.345222 0.726652
0.894390 0.324095 0.722681
0.999997 0.388382 0.701976
0.999998 0.545320 0.704420
0.000021 0.527814 0.659078
0.000027 0.532844 0.678369
0.069887 0.542209 0.728216
0.353929 0.542637 0.727217
0.522905 0.521641 0.699624
0.696479 0.518183 0.697142
0.889228 0.520510 0.711814
0.999999 0.545556 0.700361
0.999997 0.647527 0.722946
0.000000 0.691441 0.691441
0.000055 0.696641 0.697302
0.000017 0.709531 0.711855
0.307235 0.713522 0.715507
0.510436 0.691310 0.691638
0.670962 0.670962 0.670962
0.844535 0.679475 0.679940
1.000000 0.683817 0.685301
0.999996 0.748396 0.743836
0.000000 0.840216 0.701207
0.000031 0.844401 0.700135
0.000017 0.854992 0.695664
0.199341 0.866355 0.684427
0.468454 0.859418 0.675745
0.665989 0.832818 0.666803
0.824942 0.824299 0.657575
0.991818 0.810803 0.626967
0.999998 0.841512 0.763614
0.000088 0.965615 0.691259
0.000059 0.968725 0.686531
0.000000 0.976634 0.672674
0.000018 0.990797 0.639950
0.389434 0.986075 0.623049
0.605496 0.972690 0.611687
0.781180 0.955394 0.597478
0.937270 0.934206 0.580626
0.999999 0.925206 0.777949
0.618298 1.000000 0.777788
0.627264 1.000000 0.778225
0.649171 0.999997 0.779314
0.685347 0.999999 0.781167
0.734169 1.000000 0.783792
0.792777 0.999999 0.787181
0.858111 0.999999 0.791522
0.927390 1.000000 0.798147
0.996368 1.000000 0.817262
0.000000 0.101391 0.552819
0.097567 0.000004 0.627315
0.212344 0.000002 0.650612
0.340021 0.000007 0.684515
0.481879 0.000000 0.723718
0.635639 0.000004 0.762594
0.796326 0.000029 0.796326
0.957572 0.000006 0.821474
0.999998 0.375200 0.785289
0.000000 0.100406 0.640736
0.106709 0.000013 0.702070
0.226144 0.000005 0.720738
0.358741 0.000000 0.746446
0.504352 0.000011 0.774181
0.659700 0.000027 0.800233
0.819739 0.000000 0.822036
0.978737 0.000026 0.837427
1.000000 0.404354 0.787467
0.000000 0.226947 0.689169
0.088356 0.000004 0.883944
0.241380 0.000000 0.892556
0.393088 0.000007 0.899634
0.552453 0.000012 0.899543
0.715059 0.000007 0.892723
0.875465 0.000024 0.883562
0.999998 0.195547 0.852915
0.999994 0.467586 0.792877
0.000000 0.374254 0.748608
0.000000 0.361118 0.819069
0.192572 0.335096 0.908348
0.381640 0.338180 0.908686
0.553830 0.337453 0.908572
0.724626 0.329008 0.906924
0.894775 0.308248 0.902151
1.000000 0.387935 0.852554
0.999994 0.555554 0.801994
0.000028 0.534769 0.800427
0.000008 0.536259 0.829840
0.075192 0.534532 0.908894
0.355344 0.534952 0.907602
0.543552 0.533029 0.904876
0.718228 0.526453 0.899690
0.887045 0.512592 0.890748
0.999997 0.542580 0.850667
0.999999 0.653885 0.814227
0.000067 0.694467 0.832235
0.000005 0.698119 0.844845
0.000000 0.706463 0.879490
0.301896 0.708310 0.895125
0.515825 0.703809 0.889283
0.684831 0.683895 0.849658
0.842086 0.676302 0.842639
1.000000 0.677993 0.841583
1.000000 0.751678 0.827992
0.000074 0.839889 0.839889
0.000020 0.843307 0.843836
0.000000 0.851811 0.853672
0.180263 0.861292 0.864539
0.460203 0.854200 0.855998
0.662343 0.829967 0.830258
0.815000 0.815000 0.815000
0.954735 0.810109 0.810476
0.999998 0.842554 0.840980
0.000150 0.963030 0.826200
0.000017 0.965742 0.825451
0.000119 0.972597 0.822746
0.000039 0.984746 0.814590
0.381049 0.980404 0.803717
0.598622 0.967252 0.791138
0.793445 0.936535 0.794023
0.925954 0.925501 0.784247
0.999999 0.924776 0.850517
0.621421 1.000000 0.848050
0.630194 1.000000 0.848335
0.651653 0.999998 0.849036
0.687170 0.999999 0.850204
0.735256 1.000000 0.851792
0.793203 0.999999 0.853701
0.858129 1.000000 0.855882
0.927555 1.000000 0.858827
0.998230 1.000000 0.868571
0.000000 0.138379 0.696420
0.107571 0.000000 0.784950
0.227388 0.000004 0.806051
0.357581 0.000025 0.837322
0.499359 0.000030 0.873923
0.650898 0.000011 0.910418
0.807935 0.000025 0.941930
0.964858 0.000043 0.964858
0.999998 0.401087 0.888756
0.006253 0.000000 0.842992
0.116110 0.000016 0.850902
0.238476 0.000007 0.868711
0.371963 0.000004 0.894267
0.516599 0.000008 0.922698
0.669796 0.000000 0.949355
0.826959 0.000016 0.970765
0.982660 0.000022 0.984602
0.999996 0.427630 0.889937
0.000000 0.238882 0.841129
0.107388 0.048090 0.999989
0.249483 0.082911 0.999992
0.392914 0.117671 0.999995
0.542019 0.147895 0.999998
0.694552 0.173588 0.999994
0.847027 0.194903 0.999994
0.997059 0.207528 0.999995
0.999995 0.486058 0.892905
0.000000 0.384985 0.896596
0.000000 0.353059 0.992727
0.231640 0.355568 0.999994
0.392450 0.363927 0.999996
0.546602 0.373450 0.999996
0.699077 0.382609 0.999993
0.849572 0.389367 0.999999
0.997941 0.389080 0.999999
0.999999 0.568728 0.897954
0.000000 0.541912 0.945234
0.000000 0.538623 0.984609
0.226331 0.538893 0.999996
0.396172 0.542408 0.999997
0.551714 0.546199 0.999997
0.702456 0.548907 0.999998
0.850533 0.548169 0.999997
0.998361 0.538778 0.999999
0.999995 0.662363 0.904754
0.000007 0.697332 0.973924
0.000027 0.698948 0.992697
0.227381 0.699824 0.999999
0.396972 0.700198 0.999999
0.550512 0.699759 0.999997
0.698762 0.697097 0.999999
0.845900 0.689349 0.999997
0.998289 0.669521 0.999999
0.999996 0.756379 0.912368
0.000041 0.839019 0.977841
0.000107 0.841431 0.986176
0.139405 0.844819 1.000000
0.349880 0.843158 0.999998
0.512267 0.839791 0.999999
0.664940 0.833010 0.999998
0.817654 0.816893 0.962949
0.950436 0.805925 0.950891
0.999997 0.844488 0.919451
0.000111 0.959637 0.959637
0.000087 0.961821 0.962245
0.000088 0.967277 0.968770
0.000034 0.976661 0.980026
0.373447 0.972146 0.974994
0.591677 0.959337 0.960791
0.789582 0.932575 0.932790
0.920962 0.920962 0.920962
1.000000 0.923069 0.922907
0.626743 0.999998 0.921682
0.635225 1.000000 0.921873
0.656033 1.000000 0.922339
0.690593 0.999998 0.923099
0.737543 1.000000 0.924082
0.794401 0.999999 0.925159
0.858474 0.999999 0.926169
0.924462 1.000000 0.924199
0.999749 1.000000 0.925718
0.000000 0.177572 0.848642
0.116799 0.000023 0.951933
0.241411 0.000007 0.970289
0.374118 0.000005 0.997835
0.508854 0.117061 0.999994
0.644382 0.197317 0.999993
0.775959 0.270456 0.999991
0.899051 0.342587 0.999996
1.000000 0.430538 0.988903
0.007841 0.013384 0.999988
0.123187 0.043696 0.999990
0.247307 0.093821 0.999993
0.377882 0.145770 0.999992
0.512550 0.198487 0.999997
0.647415 0.253720 0.999999
0.777898 0.312785 0.999996
0.899806 0.375257 0.999994
0.999999 0.454398 0.989234
0.000546 0.250844 0.999992
0.127524 0.256524 0.999993
0.256516 0.269930 0.999992
0.388614 0.291253 1.000000
0.522479 0.319757 0.999997
0.655088 0.355139 0.999996
0.782648 0.397144 0.999994
0.901601 0.444652 0.999997
0.999995 0.507716 0.990097
0.095544 0.413374 0.999997
0.174123 0.416363 0.999999
0.287742 0.423730 0.999996
0.413108 0.436219 0.999992
0.541583 0.454011 0.999996
0.668667 0.477243 0.999998
0.790652 0.505868 0.999996
0.904454 0.539218 0.999995
0.999999 0.584496 0.991651
0.219425 0.563571 0.999994
0.263616 0.565319 1.000000
0.348516 0.569702 0.999996
0.455905 0.577324 0.999999
0.571797 0.588460 0.999999
0.688668 0.603262 0.999997
0.801858 0.621693 0.999997
0.908249 0.643346 0.999998
0.999997 0.672748 0.993795
0.342513 0.700774 0.999995
0.369854 0.701716 0.999997
0.429585 0.704096 0.999997
0.514171 0.708295 0.999997
0.611934 0.714516 0.999997
0.714319 0.722877 0.999997
0.815777 0.733360 0.999997
0.912866 0.745737 0.999996
0.999999 0.762384 0.996159
0.454181 0.820404 0.999994
0.472255 0.820779 0.999998
0.514193 0.821734 0.999995
0.578089 0.823452 0.999994
0.656672 0.826057 0.999996
0.742803 0.829645 0.999997
0.831091 0.834250 1.000000
0.918029 0.839806 0.999997
0.999998 0.847280 0.998215
0.545709 0.920557 0.999998
0.558309 0.920572 0.999998
0.588447 0.920623 0.999998
0.636521 0.920754 1.000000
0.698620 0.921039 0.999999
0.769776 0.921571 0.999999
0.845630 0.922446 1.000000
0.922095 0.922430 1.000000
1.000000 0.923469 0.999763
0.635308 1.000000 0.995590
0.643432 0.999999 0.995744
0.663355 1.000000 0.996123
0.696579 1.000000 0.996736
0.741949 1.000000 0.997533
0.797199 1.000000 0.998401
0.859853 1.000000 0.999202
0.924636 1.000000 0.999884
1.000000 1.000000 1.000000
