pifilm/data/looks/starter/pifilm.cube
TITLE "pifilm"
LUT_3D_SIZE 33
DOMAIN_MIN 0.0 0.0 0.0
DOMAIN_MAX 1.0 1.0 1.0
0.000000 0.000000 0.000000
0.018569 0.000000 0.000000
0.037626 0.000000 0.000000
0.053032 0.000000 0.000000
0.063803 0.000000 0.000000
0.076181 0.000000 0.000000
0.096193 0.000000 0.000000
0.121369 0.000000 0.000000
0.148106 0.000000 0.000000
0.176430 0.000000 0.000000
0.206332 0.000000 0.000000
0.237800 0.000000 0.000000
0.270795 0.000000 0.000000
0.305264 0.000000 0.000000
0.341141 0.000000 0.000000
0.378342 0.000000 0.000000
0.416780 0.000000 0.000000
0.456352 0.000000 0.000000
0.496937 0.000000 0.000000
0.538417 0.000002 0.000001
0.580669 0.000008 0.000004
0.623563 0.000000 0.000000
0.666955 0.000000 0.000000
0.710711 0.000011 0.000006
0.754698 0.000010 0.000005
0.798775 0.000028 0.000016
0.842812 0.000024 0.000013
0.886677 0.000012 0.000007
0.930238 0.000037 0.000020
0.973382 0.000031 0.000017
0.999997 0.114687 0.078508
0.999994 0.238234 0.181732
0.999998 0.315557 0.251034
0.000000 0.018569 0.000000
0.018569 0.018569 0.000000
0.037626 0.018569 0.000000
0.053485 0.016920 0.000000
0.065528 0.013633 0.000000
0.079130 0.010954 0.000000
0.099618 0.010591 0.000000
0.124819 0.011377 0.000000
0.151557 0.012242 0.000000
0.179853 0.013184 0.000000
0.209710 0.014199 0.000000
0.241116 0.015279 0.000000
0.274032 0.016422 0.000000
0.308412 0.017615 0.000000
0.344187 0.018858 0.000000
0.381279 0.020143 0.000000
0.419598 0.021454 0.000000
0.459044 0.022773 0.000000
0.499495 0.024127 0.000000
0.540842 0.025464 0.000000
0.582955 0.026790 0.000000
0.625702 0.028103 0.000000
0.668950 0.029390 0.000000
0.712561 0.030642 0.000000
0.756404 0.031827 0.000000
0.800330 0.033015 0.000015
0.844227 0.034054 0.000000
0.887949 0.035052 0.000000
0.931372 0.035988 0.000000
0.974377 0.036855 0.000013
0.999996 0.133534 0.082247
1.000000 0.247377 0.184209
0.999991 0.322130 0.253289
0.000000 0.037626 0.000000
0.018569 0.037626 0.000000
0.037626 0.037626 0.000000
0.053930 0.034695 0.000000
0.067209 0.028907 0.000000
0.082093 0.024299 0.000000
0.103138 0.023856 0.000000
0.128427 0.025463 0.000000
0.155208 0.027244 0.000000
0.183511 0.029195 0.000000
0.213348 0.031301 0.000000
0.244708 0.033550 0.000000
0.277559 0.035929 0.000000
0.311851 0.038433 0.000000
0.347526 0.041022 0.000000
0.384507 0.043588 0.000000
0.422704 0.046118 0.000000
0.462009 0.048617 0.000000
0.502322 0.051043 0.000000
0.543523 0.053389 0.000000
0.585482 0.055655 0.000000
0.628070 0.057841 0.000000
0.671160 0.059905 0.000000
0.714612 0.061861 0.000000
0.758288 0.063715 0.000004
0.802062 0.065419 0.000000
0.845796 0.066997 0.000000
0.889358 0.068460 0.000000
0.932625 0.069789 0.000007
0.975481 0.070975 0.000010
0.999993 0.152091 0.086352
0.999996 0.257289 0.187003
0.999998 0.329349 0.255803
0.000000 0.053985 0.000000
0.017092 0.054129 0.000000
0.034898 0.054287 0.000000
0.054503 0.054503 0.000000
0.069320 0.048609 0.000000
0.085887 0.044433 0.000000
0.107721 0.044800 0.000000
0.133189 0.047243 0.000000
0.160080 0.049881 0.000000
0.188439 0.052678 0.000000
0.218283 0.055600 0.000000
0.249607 0.058618 0.000000
0.282388 0.061702 0.000000
0.316586 0.064824 0.000000
0.352142 0.067955 0.000000
0.388975 0.071086 0.000000
0.427011 0.074174 0.000000
0.466139 0.077224 0.000000
0.506260 0.080201 0.000000
0.547258 0.083088 0.000000
0.589007 0.085877 0.000000
0.631384 0.088541 0.000000
0.674251 0.091092 0.000000
0.717479 0.093501 0.000000
0.760935 0.095761 0.000000
0.804480 0.097879 0.000000
0.847985 0.099847 0.000014
0.891326 0.101640 0.000018
0.934378 0.103268 0.000023
0.977022 0.104719 0.000020
0.999995 0.175181 0.091998
0.999994 0.270751 0.190950
0.999999 0.339373 0.259384
0.000000 0.069139 0.000000
0.014518 0.069621 0.000000
0.030294 0.070146 0.000000
0.049890 0.070868 0.000000
0.071789 0.071788 0.000000
0.090390 0.068889 0.000000
0.113234 0.069868 0.000000
0.138986 0.072545 0.000000
0.166076 0.075462 0.000000
0.194556 0.078583 0.000000
0.224458 0.081866 0.000000
0.255779 0.085281 0.000000
0.288509 0.088787 0.000000
0.322610 0.092354 0.000000
0.358032 0.095949 0.000000
0.394702 0.099547 0.000000
0.432544 0.103115 0.000000
0.471460 0.106635 0.000000
0.511348 0.110080 0.000000
0.552090 0.113442 0.000001
0.593578 0.116675 0.000000
0.635674 0.119796 0.000004
0.678262 0.122757 0.000000
0.721203 0.125567 0.000000
0.764363 0.128218 0.000009
0.807621 0.130674 0.000000
0.850837 0.132960 0.000009
0.893889 0.135054 0.000019
0.936660 0.136936 0.000003
0.979022 0.138645 0.000028
0.999997 0.201818 0.099228
0.999998 0.287643 0.196143
0.999998 0.352265 0.264134
0.000000 0.089132 0.000000
0.013051 0.089923 0.000000
0.027977 0.090792 0.000000
0.048739 0.091999 0.000000
0.071586 0.093552 0.000000
0.095440 0.095439 0.000000
0.119483 0.096996 0.000000
0.145626 0.099816 0.000000
0.173007 0.102917 0.000000
0.201687 0.106259 0.000000
0.231706 0.109800 0.000000
0.263073 0.113502 0.000000
0.295781 0.117327 0.000000
0.329805 0.121233 0.000000
0.365096 0.125190 0.000000
0.401595 0.129159 0.000000
0.439226 0.133113 0.000000
0.477898 0.137021 0.000000
0.517516 0.140854 0.000000
0.557967 0.144594 0.000000
0.599139 0.148213 0.000000
0.640911 0.151691 0.000000
0.683159 0.155009 0.000000
0.725749 0.158161 0.000000
0.768560 0.161120 0.000000
0.811461 0.163878 0.000000
0.854320 0.166436 0.000004
0.897022 0.168772 0.000001
0.939443 0.170883 0.000000
0.981464 0.172779 0.000000
0.999995 0.230967 0.107956
0.999992 0.307592 0.202640
0.999998 0.367866 0.270089
0.000000 0.116573 0.000000
0.013778 0.117456 0.000000
0.029785 0.118434 0.000000
0.052213 0.119799 0.000000
0.076059 0.121571 0.000000
0.100704 0.123739 0.000000
0.126283 0.126283 0.000000
0.152908 0.129172 0.000000
0.180667 0.132371 0.000000
0.209625 0.135841 0.000000
0.239828 0.139542 0.000000
0.271293 0.143432 0.000000
0.304023 0.147469 0.000000
0.337996 0.151613 0.000000
0.373176 0.155825 0.000000
0.409506 0.160068 0.000000
0.446920 0.164305 0.000000
0.485335 0.168503 0.000000
0.524657 0.172633 0.000000
0.564783 0.176667 0.000000
0.605602 0.180580 0.000000
0.647004 0.184342 0.000000
0.688856 0.187947 0.000009
0.731049 0.191356 0.000003
0.773447 0.194570 0.000016
0.815937 0.197557 0.000000
0.858384 0.200322 0.000000
0.900668 0.202857 0.000000
0.942677 0.205143 0.000000
0.984295 0.207185 0.000000
0.999993 0.261855 0.118039
1.000000 0.330102 0.210391
1.000000 0.385931 0.277262
0.000000 0.148181 0.000000
0.015422 0.149038 0.000000
0.033259 0.149990 0.000000
0.057105 0.151326 0.000000
0.081807 0.153068 0.000000
0.107218 0.155214 0.000000
0.133460 0.157747 0.000000
0.160643 0.160642 0.000000
0.188854 0.163867 0.000000
0.218162 0.167386 0.000000
0.248612 0.171157 0.000000
0.280232 0.175142 0.000000
0.313028 0.179295 0.000000
0.346987 0.183576 0.000000
0.382080 0.187943 0.000000
0.418257 0.192356 0.000000
0.455458 0.196776 0.000000
0.493604 0.201172 0.000002
0.532618 0.205501 0.000000
0.572395 0.209739 0.000001
0.612834 0.213854 0.000005
0.653827 0.217817 0.000000
0.695252 0.221613 0.000013
0.737000 0.225208 0.000003
0.778945 0.228589 0.000000
0.820960 0.231753 0.000010
0.862934 0.234673 0.000021
0.904751 0.237334 0.000010
0.946290 0.239742 0.000021
0.987446 0.241885 0.000033
0.999993 0.293936 0.129323
0.999994 0.354751 0.219406
0.999997 0.406175 0.285649
0.000000 0.182047 0.000000
0.017197 0.182870 0.000000
0.037011 0.183786 0.000000
0.062078 0.185077 0.000000
0.087677 0.186767 0.000000
0.113899 0.188858 0.000000
0.140858 0.191339 0.000000
0.168656 0.194188 0.000000
0.197379 0.197378 0.000000
0.227093 0.200875 0.000000
0.257848 0.204641 0.000000
0.289674 0.208636 0.000000
0.322582 0.212817 0.000000
0.356563 0.217143 0.000000
0.391596 0.221570 0.000000
0.427638 0.226059 0.000000
0.464640 0.230565 0.000000
0.502526 0.235055 0.000000
0.541223 0.239491 0.000000
0.580640 0.243837 0.000002
0.620679 0.248065 0.000010
0.661241 0.252138 0.000000
0.702207 0.256041 0.000000
0.743471 0.259743 0.000000
0.784916 0.263227 0.000000
0.826423 0.266477 0.000005
0.867882 0.269475 0.000012
0.909181 0.272204 0.000000
0.950203 0.274667 0.000012
0.990848 0.276849 0.000024
0.999993 0.326823 0.141653
0.999997 0.381084 0.229584
0.999992 0.428280 0.295211
0.000000 0.218034 0.000000
0.019076 0.218816 0.000000
0.040975 0.219689 0.000000
0.067053 0.220922 0.000000
0.093567 0.222542 0.000000
0.120627 0.224552 0.000000
0.148335 0.226947 0.000000
0.176788 0.229709 0.000000
0.206065 0.232814 0.000000
0.236231 0.236230 0.000000
0.267335 0.239925 0.000000
0.299408 0.243857 0.000000
0.332465 0.247988 0.000000
0.366505 0.252275 0.000000
0.401508 0.256676 0.000000
0.437442 0.261148 0.000000
0.474255 0.265653 0.000001
0.511891 0.270147 0.000005
0.550277 0.274594 0.000002
0.589331 0.278958 0.000000
0.628961 0.283206 0.000000
0.669069 0.287308 0.000000
0.709553 0.291237 0.000000
0.750308 0.294964 0.000001
0.791220 0.298472 0.000020
0.832185 0.301737 0.000025
0.873097 0.304735 0.000000
0.913832 0.307475 0.000023
0.954301 0.309922 0.000000
0.994390 0.312088 0.000024
1.000000 0.360224 0.154856
0.999997 0.408738 0.240856
0.999998 0.451924 0.305870
0.000000 0.255958 0.000000
0.021033 0.256695 0.000000
0.044916 0.257519 0.000000
0.071960 0.258684 0.000000
0.099390 0.260218 0.000000
0.127292 0.262129 0.000000
0.155766 0.264410 0.000000
0.184894 0.267051 0.000000
0.214751 0.270028 0.000000
0.245398 0.273317 0.000000
0.276883 0.276883 0.000000
0.309238 0.280692 0.000000
0.342479 0.284704 0.000000
0.376605 0.288880 0.000000
0.411605 0.293177 0.000000
0.447451 0.297554 0.000000
0.484097 0.301971 0.000005
0.521496 0.306384 0.000000
0.559576 0.310760 0.000000
0.598267 0.315058 0.000000
0.637483 0.319245 0.000000
0.677133 0.323288 0.000000
0.717121 0.327161 0.000001
0.757348 0.330834 0.000007
0.797714 0.334282 0.000000
0.838108 0.337491 0.000021
0.878434 0.340434 0.000008
0.918582 0.343106 0.000035
0.958462 0.345482 0.000004
0.997963 0.347569 0.000026
0.999995 0.393938 0.168814
0.999995 0.437389 0.253117
0.999995 0.476828 0.317578
0.000000 0.295600 0.000000
0.023048 0.296287 0.000000
0.048730 0.297057 0.000000
0.076733 0.298146 0.000000
0.105062 0.299584 0.000000
0.133799 0.301378 0.000000
0.163035 0.303526 0.000000
0.192845 0.306017 0.000000
0.223293 0.308835 0.000000
0.254437 0.311955 0.000000
0.286323 0.315347 0.000000
0.318980 0.318980 0.000000
0.352426 0.322816 0.000000
0.386664 0.326818 0.000004
0.421683 0.330944 0.000005
0.457460 0.335155 0.000004
0.493959 0.339410 0.000007
0.531132 0.343669 0.000000
0.568920 0.347894 0.000000
0.607251 0.352049 0.000006
0.646053 0.356098 0.000012
0.685243 0.360006 0.000011
0.724730 0.363747 0.000016
0.764422 0.367289 0.000012
0.804225 0.370609 0.000000
0.844034 0.373689 0.000007
0.883755 0.376509 0.000035
0.923298 0.379045 0.000012
0.962557 0.381297 0.000035
0.999999 0.384878 0.012546
1.000000 0.427765 0.183309
0.999997 0.466745 0.266231
0.999992 0.502706 0.330225
0.000000 0.336706 0.000000
0.025074 0.337340 0.000000
0.052398 0.338051 0.000000
0.081316 0.339059 0.000000
0.110512 0.340392 0.000000
0.140061 0.342057 0.000000
0.170047 0.344054 0.000000
0.200526 0.346375 0.000000
0.231563 0.349007 0.000000
0.263206 0.351927 0.000000
0.295500 0.355109 0.000000
0.328470 0.358523 0.000006
0.362135 0.362136 0.000005
0.396500 0.365910 0.000006
0.431555 0.369809 0.000006
0.467281 0.373794 0.000000
0.503646 0.377824 0.000000
0.540605 0.381863 0.000011
0.578110 0.385870 0.000000
0.616094 0.389812 0.000014
0.654493 0.393649 0.000000
0.693223 0.397355 0.000013
0.732211 0.400892 0.000000
0.771359 0.404240 0.000023
0.810592 0.407365 0.000000
0.849808 0.410252 0.000000
0.888917 0.412881 0.000016
0.927832 0.415233 0.000031
0.966462 0.417295 0.000042
0.999994 0.423778 0.044436
0.999996 0.461570 0.198210
0.999999 0.496571 0.280066
0.999996 0.529304 0.343694
0.000000 0.378996 0.000000
0.027084 0.379576 0.000000
0.055862 0.380227 0.000000
0.085651 0.381150 0.000000
0.115675 0.382370 0.000000
0.146014 0.383896 0.000005
0.176710 0.385732 0.000000
0.207838 0.387868 0.000000
0.239448 0.390292 0.000000
0.271581 0.392988 0.000000
0.304277 0.395930 0.000000
0.337562 0.399092 0.000006
0.371451 0.402443 0.000000
0.405949 0.405949 0.000000
0.441049 0.409574 0.000000
0.476735 0.413282 0.000000
0.512977 0.417035 0.000000
0.549738 0.420796 0.000000
0.586969 0.424529 0.000017
0.624615 0.428197 0.000021
0.662614 0.431766 0.000023
0.700897 0.435204 0.000002
0.739381 0.438483 0.000030
0.777997 0.441570 0.000018
0.816656 0.444444 0.000012
0.855273 0.447083 0.000032
0.893771 0.449462 0.000003
0.932055 0.451572 0.000019
0.970048 0.453394 0.000026
1.000000 0.461762 0.071372
0.999998 0.495209 0.213294
0.999999 0.526653 0.294475
0.999999 0.556398 0.357875
0.000000 0.422178 0.000000
0.029030 0.422702 0.000000
0.059108 0.423290 0.000000
0.089703 0.424125 0.000000
0.120515 0.425228 0.000001
0.151580 0.426612 0.000002
0.182956 0.428276 0.000000
0.214698 0.430215 0.000000
0.246852 0.432419 0.000000
0.279456 0.434872 0.000005
0.312540 0.437553 0.000004
0.346128 0.440438 0.000000
0.380236 0.443497 0.000000
0.414867 0.446701 0.000014
0.450015 0.450015 0.000000
0.485665 0.453406 0.000010
0.521792 0.456839 0.000019
0.558363 0.460277 0.000000
0.595334 0.463686 0.000000
0.632653 0.467032 0.000000
0.670261 0.470282 0.000016
0.708099 0.473404 0.000022
0.746098 0.476367 0.000000
0.784181 0.479147 0.000000
0.822272 0.481718 0.000019
0.860299 0.484055 0.000001
0.898177 0.486144 0.000026
0.935833 0.487963 0.000028
0.973189 0.489499 0.000007
0.999996 0.498905 0.093011
0.999998 0.528568 0.228381
1.000000 0.556806 0.309291
1.000000 0.583783 0.372636
0.000017 0.465945 0.000014
0.030911 0.466413 0.000000
0.062095 0.466937 0.000002
0.093455 0.467681 0.000013
0.124967 0.468669 0.000000
0.156715 0.469905 0.000000
0.188720 0.471393 0.000000
0.221039 0.473127 0.000005
0.253700 0.475101 0.000006
0.286738 0.477301 0.000000
0.320187 0.479706 0.000000
0.354062 0.482295 0.000000
0.388376 0.485041 0.000017
0.423131 0.487919 0.000000
0.458324 0.490896 0.000000
0.493940 0.493940 0.000001
0.529955 0.497019 0.000019
0.566340 0.500099 0.000000
0.603055 0.503148 0.000000
0.640054 0.506132 0.000003
0.677284 0.509022 0.000033
0.714689 0.511785 0.000027
0.752208 0.514393 0.000000
0.789766 0.516823 0.000031
0.827303 0.519047 0.000021
0.864742 0.521046 0.000044
0.902016 0.522797 0.000024
0.939049 0.524288 0.000018
0.975770 0.525504 0.000036
0.999996 0.535210 0.111080
0.999995 0.561539 0.243246
0.999998 0.586864 0.324343
0.999997 0.611275 0.387843
0.000004 0.509993 0.000004
0.032666 0.510404 0.000000
0.064793 0.510865 0.000000
0.096841 0.511519 0.000006
0.129024 0.512387 0.000015
0.161379 0.513475 0.000001
0.193959 0.514785 0.000000
0.226796 0.516313 0.000000
0.259923 0.518052 0.000019
0.293361 0.519990 0.000000
0.327141 0.522110 0.000002
0.361276 0.524392 0.000019
0.395774 0.526814 0.000000
0.430641 0.529348 0.000013
0.465868 0.531968 0.000008
0.501443 0.534644 0.000022
0.537345 0.537346 0.000015
0.573546 0.540042 0.000031
0.610011 0.542703 0.000026
0.646699 0.545297 0.000000
0.683559 0.547795 0.000006
0.720542 0.550169 0.000008
0.757588 0.552391 0.000021
0.794640 0.554435 0.000010
0.831632 0.556281 0.000008
0.868500 0.557905 0.000000
0.905174 0.559293 0.000030
0.941594 0.560425 0.000049
0.977694 0.561290 0.000062
0.999999 0.570673 0.126051
0.999996 0.594018 0.257624
0.999995 0.616684 0.339440
0.999994 0.638706 0.403345
0.000004 0.554017 0.000003
0.034282 0.554373 0.000000
0.067220 0.554771 0.000007
0.099858 0.555337 0.000000
0.132621 0.556087 0.000000
0.165541 0.557027 0.000008
0.198635 0.558159 0.000016
0.231934 0.559480 0.000007
0.265470 0.560984 0.000001
0.299266 0.562659 0.000011
0.333337 0.564490 0.000001
0.367700 0.566460 0.000007
0.402359 0.568548 0.000018
0.437314 0.570731 0.000016
0.472561 0.572984 0.000020
0.508085 0.575279 0.000000
0.543869 0.577589 0.000019
0.579886 0.579886 0.000000
0.616102 0.582140 0.000034
0.652483 0.584324 0.000004
0.688981 0.586411 0.000028
0.725551 0.588372 0.000016
0.762142 0.590184 0.000000
0.798695 0.591823 0.000003
0.835155 0.593267 0.000023
0.871463 0.594496 0.000043
0.907563 0.595492 0.000000
0.943386 0.596243 0.000014
0.978882 0.596734 0.000000
0.999995 0.605280 0.137860
0.999996 0.625919 0.271240
0.999996 0.646134 0.354375
0.999995 0.665930 0.418991
0.000024 0.597726 0.000020
0.035734 0.598028 0.000000
0.069339 0.598364 0.000017
0.102509 0.598844 0.000006
0.135777 0.599479 0.000000
0.169172 0.600275 0.000000
0.202715 0.601232 0.000015
0.236416 0.602350 0.000000
0.270313 0.603619 0.000018
0.304412 0.605034 0.000005
0.338734 0.606578 0.000015
0.373285 0.608237 0.000004
0.408072 0.609991 0.000016
0.443090 0.611820 0.000000
0.478337 0.613701 0.000014
0.513798 0.615610 0.000014
0.549453 0.617522 0.000019
0.585281 0.619411 0.000001
0.621250 0.621250 0.000000
0.657325 0.623013 0.000010
0.693468 0.624676 0.000044
0.729636 0.626213 0.000000
0.765779 0.627602 0.000048
0.801850 0.628821 0.000044
0.837796 0.629849 0.000043
0.873563 0.630668 0.000041
0.909097 0.631262 0.000049
0.944347 0.631617 0.000001
0.979254 0.631723 0.000006
1.000000 0.638997 0.145868
0.999995 0.657164 0.283768
0.999999 0.675107 0.368938
1.000000 0.692817 0.434625
0.000040 0.640846 0.000033
0.037024 0.641095 0.000015
0.071149 0.641373 0.000029
0.104769 0.641768 0.000015
0.138469 0.642292 0.000003
0.172271 0.642947 0.000003
0.206189 0.643735 0.000017
0.240227 0.644655 0.000000
0.274422 0.645697 0.000001
0.308779 0.646855 0.000031
0.343297 0.648118 0.000000
0.377998 0.649470 0.000000
0.412877 0.650895 0.000005
0.447931 0.652374 0.000007
0.483153 0.653887 0.000000
0.518532 0.655412 0.000029
0.554047 0.656926 0.000021
0.589678 0.658406 0.000019
0.625396 0.659829 0.000003
0.661169 0.661169 0.000022
0.696963 0.662406 0.000000
0.732736 0.663515 0.000033
0.768447 0.664476 0.000000
0.804049 0.665269 0.000017
0.839496 0.665876 0.000027
0.874741 0.666280 0.000030
0.909732 0.666466 0.000044
0.944425 0.666422 0.000008
0.978766 0.666138 0.000051
0.999996 0.671813 0.149131
0.999999 0.687684 0.294784
0.999999 0.703511 0.382912
0.999999 0.719266 0.450121
0.000023 0.683124 0.000019
0.038120 0.683321 0.000038
0.072629 0.683543 0.000016
0.106649 0.683857 0.000042
0.140703 0.684274 0.000030
0.174822 0.684797 0.000000
0.209054 0.685421 0.000027
0.243373 0.686148 0.000028
0.277802 0.686972 0.000031
0.312347 0.687884 0.000011
0.347019 0.688875 0.000000
0.381824 0.689929 0.000000
0.416760 0.691033 0.000040
0.451814 0.692172 0.000002
0.486986 0.693325 0.000014
0.522261 0.694474 0.000009
0.557622 0.695598 0.000052
0.593045 0.696677 0.000000
0.628508 0.697688 0.000050
0.663979 0.698612 0.000059
0.699426 0.699426 0.000016
0.734814 0.700112 0.000000
0.770103 0.700649 0.000000
0.805251 0.701021 0.000018
0.840218 0.701209 0.000002
0.874957 0.701200 0.000049
0.909430 0.700980 0.000011
0.943588 0.700539 0.000012
0.977390 0.699867 0.000012
0.999999 0.703707 0.145647
1.000000 0.717434 0.303813
0.999998 0.731271 0.396032
0.999998 0.745180 0.465315
0.000023 0.724329 0.000019
0.038919 0.724481 0.000000
0.073810 0.724648 0.000013
0.108109 0.724887 0.000008
0.142447 0.725203 0.000000
0.176857 0.725595 0.000031
0.211304 0.726067 0.000000
0.245835 0.726613 0.000014
0.280436 0.727228 0.000000
0.315131 0.727904 0.000044
0.349901 0.728634 0.000002
0.384765 0.729404 0.000029
0.419710 0.730202 0.000013
0.454737 0.731012 0.000042
0.489831 0.731819 0.000059
0.524977 0.732606 0.000000
0.560166 0.733353 0.000015
0.595372 0.734043 0.000043
0.630572 0.734657 0.000008
0.665740 0.735175 0.000000
0.700844 0.735580 0.000004
0.735852 0.735853 0.000054
0.770729 0.735977 0.000073
0.805438 0.735937 0.000075
0.839943 0.735718 0.000000
0.874199 0.735307 0.000042
0.908171 0.734692 0.000080
0.941821 0.733864 0.000057
0.975110 0.732814 0.000031
0.999999 0.734688 0.131786
0.999999 0.746382 0.310208
0.999996 0.758330 0.408010
0.999998 0.770488 0.480059
0.000036 0.764265 0.000029
0.039626 0.764371 0.000033
0.074691 0.764490 0.000009
0.109212 0.764658 0.000008
0.143778 0.764877 0.000046
0.178360 0.765151 0.000052
0.212973 0.765478 0.000021
0.247641 0.765853 0.000013
0.282360 0.766272 0.000012
0.317128 0.766728 0.000000
0.351953 0.767211 0.000000
0.386826 0.767713 0.000000
0.421748 0.768220 0.000009
0.456705 0.768720 0.000000
0.491694 0.769197 0.000063
0.526690 0.769641 0.000000
0.561689 0.770029 0.000033
0.596666 0.770348 0.000054
0.631597 0.770582 0.000067
0.666457 0.770714 0.000003
0.701221 0.770726 0.000058
0.735857 0.770604 0.000078
0.770334 0.770334 0.000000
0.804618 0.769900 0.000023
0.838675 0.769290 0.000016
0.872470 0.768494 0.000016
0.905966 0.767500 0.000079
0.939132 0.766301 0.000059
0.971933 0.764891 0.000027
0.999998 0.764776 0.098037
1.000000 0.774513 0.313041
0.999996 0.784652 0.418489
0.999997 0.795138 0.494205
0.000046 0.802765 0.000038
0.040071 0.802830 0.000035
0.075325 0.802901 0.000058
0.109964 0.803004 0.000031
0.144646 0.803136 0.000037
0.179332 0.803300 0.000000
0.214073 0.803490 0.000056
0.248818 0.803707 0.000048
0.283588 0.803944 0.000034
0.318392 0.804192 0.000068
0.353209 0.804448 0.000042
0.388044 0.804700 0.000000
0.422902 0.804935 0.000067
0.457755 0.805145 0.000034
0.492602 0.805317 0.000020
0.527430 0.805435 0.000058
0.562216 0.805488 0.000006
0.596950 0.805460 0.000072
0.631602 0.805337 0.000014
0.666155 0.805104 0.000049
0.700579 0.804749 0.000022
0.734849 0.804255 0.000066
0.768936 0.803613 0.000025
0.802808 0.802808 0.000043
0.836436 0.801831 0.000072
0.869788 0.800672 0.000065
0.902833 0.799323 0.000087
0.935543 0.797776 0.000000
0.967882 0.796029 0.000096
0.999828 0.794076 0.000041
0.999998 0.801847 0.311008
1.000000 0.810222 0.427029
0.999998 0.819095 0.507596
0.000013 0.839697 0.000010
0.040305 0.839724 0.000027
0.075643 0.839753 0.000054
0.110363 0.839794 0.000038
0.145116 0.839846 0.000064
0.179857 0.839908 0.000038
0.214615 0.839976 0.000039
0.249383 0.840047 0.000051
0.284153 0.840116 0.000053
0.318921 0.840177 0.000023
0.353691 0.840222 0.000020
0.388452 0.840243 0.000010
0.423201 0.840228 0.000048
0.457917 0.840172 0.000000
0.492599 0.840060 0.000005
0.527229 0.839880 0.000018
0.561793 0.839621 0.000082
0.596266 0.839273 0.000048
0.630634 0.838820 0.000056
0.664873 0.838251 0.000053
0.698960 0.837553 0.000090
0.732869 0.836718 0.000005
0.766575 0.835730 0.000066
0.800050 0.834583 0.000011
0.833267 0.833267 0.000014
0.866197 0.831773 0.000039
0.898814 0.830096 0.000052
0.931089 0.828231 0.000106
0.963001 0.826173 0.000000
0.994520 0.823922 0.000016
0.999997 0.828428 0.301930
1.000000 0.835053 0.433078
0.999996 0.842346 0.520088
0.000078 0.874960 0.000062
0.040367 0.874954 0.000035
0.075667 0.874947 0.000002
0.110438 0.874932 0.000043
0.145184 0.874911 0.000055
0.179913 0.874882 0.000029
0.214652 0.874838 0.000046
0.249365 0.874779 0.000000
0.284089 0.874695 0.000041
0.318790 0.874584 0.000071
0.353460 0.874438 0.000054
0.388102 0.874250 0.000056
0.422701 0.874010 0.000041
0.457254 0.873709 0.000072
0.491736 0.873341 0.000005
0.526146 0.872891 0.000000
0.560462 0.872351 0.000012
0.594666 0.871710 0.000000
0.628741 0.870957 0.000007
0.662664 0.870082 0.000000
0.696416 0.869075 0.000035
0.729971 0.867926 0.000072
0.763306 0.866627 0.000063
0.796397 0.865169 0.000084
0.829220 0.863545 0.000100
0.861749 0.861750 0.000073
0.893961 0.859777 0.000083
0.925833 0.857625 0.000000
0.957340 0.855290 0.000020
0.988462 0.852772 0.000004
0.999998 0.854342 0.281917
0.999999 0.859186 0.435810
1.000000 0.864896 0.531482
0.000003 0.908497 0.000001
0.040262 0.908459 0.000052
0.075553 0.908416 0.000079
0.110200 0.908355 0.000024
0.144904 0.908268 0.000079
0.179551 0.908158 0.000020
0.214211 0.908015 0.000038
0.248838 0.907838 0.000013
0.283447 0.907620 0.000025
0.318025 0.907356 0.000049
0.352558 0.907039 0.000060
0.387036 0.906665 0.000026
0.421459 0.906223 0.000022
0.455809 0.905707 0.000010
0.490080 0.905106 0.000067
0.524246 0.904415 0.000040
0.558298 0.903623 0.000000
0.592221 0.902721 0.000016
0.625996 0.901700 0.000051
0.659601 0.900553 0.000062
0.693016 0.899270 0.000008
0.726223 0.897843 0.000089
0.759197 0.896267 0.000008
0.791919 0.894533 0.000091
0.824365 0.892639 0.000000
0.856514 0.890576 0.000038
0.888344 0.888344 0.000074
0.919835 0.885940 0.000065
