pifilm/data/looks/starter/pifilm.cube
TITLE "pifilm"
LUT_3D_SIZE 5
DOMAIN_MIN 0.0 0.0 0.0
DOMAIN_MAX 1.0 1.0 1.0
0.000000 0.000000 0.000000
0.148106 0.000000 0.000000
0.416780 0.000000 0.000000
0.754698 0.000010 0.000005
0.999998 0.315557 0.251034
0.000000 0.182047 0.000000
0.197379 0.197378 0.000000
0.464640 0.230565 0.000000
0.784916 0.263227 0.000000
0.999992 0.428280 0.295211
0.000004 0.509993 0.000004
0.259923 0.518052 0.000019
0.537345 0.537346 0.000015
0.831632 0.556281 0.000008
0.999994 0.638706 0.403345
0.000013 0.839697 0.000010
0.284153 0.840116 0.000053
0.561793 0.839621 0.000082
0.833267 0.833267 0.000014
0.999996 0.842346 0.520088
0.615906 0.999997 0.585728
0.647574 0.999997 0.590261
0.734125 0.999999 0.604409
0.858204 0.999999 0.632200
0.989368 1.000000 0.711987
0.000000 0.005667 0.110450
0.158058 0.000000 0.158059
0.425161 0.000000 0.208872
0.759776 0.000000 0.253702
0.999991 0.320030 0.367054
0.000000 0.187917 0.187917
0.185000 0.185000 0.185000
0.536023 0.166667 0.187468
0.882068 0.000008 0.160409
0.999994 0.430921 0.396559
0.000022 0.512942 0.257115
0.108730 0.543480 0.143014
0.547853 0.542326 0.107713
0.891500 0.525047 0.000000
0.999998 0.639373 0.475932
0.000012 0.839879 0.284055
0.000052 0.858656 0.109592
0.519430 0.853788 0.000020
0.839784 0.835048 0.000065
0.999999 0.841839 0.569570
0.615833 0.999997 0.620374
0.647439 0.999998 0.624148
0.733921 0.999998 0.635897
0.858206 0.999999 0.658840
0.990741 1.000000 0.727264
0.000000 0.036845 0.302290
0.182110 0.000000 0.376465
0.448577 0.000000 0.448577
0.774473 0.000012 0.516873
0.999996 0.337747 0.571385
0.000000 0.204133 0.416546
0.210509 0.170793 0.546388
0.540178 0.148447 0.546547
0.883069 0.000000 0.545322
0.999999 0.442122 0.587616
0.000000 0.521595 0.521595
0.077439 0.545406 0.547885
0.500000 0.500000 0.500000
0.891453 0.523833 0.529162
0.999995 0.643220 0.632922
0.000086 0.840210 0.562198
0.000057 0.856998 0.532202
0.476263 0.862107 0.484936
0.839561 0.835409 0.449185
0.999999 0.841224 0.689618
0.616666 0.999999 0.714117
0.647931 1.000000 0.716350
0.733784 1.000000 0.723139
0.858158 0.999999 0.735763
0.994274 1.000000 0.776733
0.000000 0.101391 0.552819
0.212344 0.000002 0.650612
0.481879 0.000000 0.723718
0.796326 0.000029 0.796326
0.999998 0.375200 0.785289
0.000000 0.226947 0.689169
0.241380 0.000000 0.892556
0.552453 0.000012 0.899543
0.875465 0.000024 0.883562
0.999994 0.467586 0.792877
0.000028 0.534769 0.800427
0.075192 0.534532 0.908894
0.543552 0.533029 0.904876
0.887045 0.512592 0.890748
0.999999 0.653885 0.814227
0.000074 0.839889 0.839889
0.000000 0.851811 0.853672
0.460203 0.854200 0.855998
0.815000 0.815000 0.815000
0.999998 0.842554 0.840980
0.621421 1.000000 0.848050
0.651653 0.999998 0.849036
0.735256 1.000000 0.851792
0.858129 1.000000 0.855882
0.998230 1.000000 0.868571
0.000000 0.177572 0.848642
0.241411 0.000007 0.970289
0.508854 0.117061 0.999994
0.775959 0.270456 0.999991
1.000000 0.430538 0.988903
0.000546 0.250844 0.999992
0.256516 0.269930 0.999992
0.522479 0.319757 0.999997
0.782648 0.397144 0.999994
0.999995 0.507716 0.990097
0.219425 0.563571 0.999994
0.348516 0.569702 0.999996
0.571797 0.588460 0.999999
0.801858 0.621693 0.999997
0.999997 0.672748 0.993795
0.454181 0.820404 0.999994
0.514193 0.821734 0.999995
0.656672 0.826057 0.999996
0.831091 0.834250 1.000000
0.999998 0.847280 0.998215
0.635308 1.000000 0.995590
0.663355 1.000000 0.996123
0.741949 1.000000 0.997533
0.859853 1.000000 0.999202
1.000000 1.000000 1.000000
