pifilm/data/pifilm.cube
TITLE "kodachrome"
LUT_3D_SIZE 5
DOMAIN_MIN 0.0 0.0 0.0
DOMAIN_MAX 1.0 1.0 1.0
0.000685 0.000503 0.000114
0.203073 0.000159 0.000611
0.482260 0.026347 0.000534
0.751435 0.008361 0.006993
1.000000 0.000000 0.000000
0.000020 0.249966 0.000011
0.242159 0.239031 0.000000
0.498008 0.248908 0.000000
0.750000 0.250002 0.000000
1.000000 0.250000 0.000000
0.000000 0.500000 0.000000
0.250007 0.500003 0.000000
0.499708 0.498867 0.000000
0.750000 0.500000 0.000000
1.000000 0.499998 0.000000
0.000000 0.750000 0.000000
0.250000 0.750000 0.000000
0.500000 0.750000 0.000000
0.754368 0.750716 0.011818
1.000000 0.749999 0.000000
0.000001 1.000000 0.000000
0.250000 1.000000 0.000000
0.500000 1.000000 0.000000
0.750000 1.000000 0.000000
1.000000 1.000000 0.000000
0.001299 0.000000 0.229378
0.249798 0.000072 0.249777
0.500036 0.000000 0.250025
0.750063 0.000123 0.249875
1.000000 0.000000 0.250000
0.002553 0.243144 0.245140
0.228334 0.225208 0.235900
0.488488 0.250153 0.245914
0.751926 0.250668 0.239964
0.999999 0.250005 0.250008
0.000000 0.500000 0.250000
0.249370 0.500041 0.250241
0.488011 0.495891 0.257134
0.769000 0.492060 0.215324
0.999999 0.500004 0.249987
0.000000 0.750000 0.250000
0.249985 0.750009 0.250014
0.499933 0.750032 0.250106
0.761950 0.754169 0.260115
1.000000 0.751504 0.254395
0.000000 1.000000 0.250000
0.250000 1.000000 0.250000
0.500000 1.000000 0.250000
0.750000 1.000000 0.250000
1.000000 0.994520 0.243736
0.000000 0.000008 0.500012
0.250000 0.000000 0.500000
0.500007 0.000000 0.500005
0.750008 0.000000 0.500008
0.999999 0.000000 0.500000
0.000859 0.249600 0.497019
0.250920 0.248883 0.497522
0.499295 0.250394 0.499734
0.749607 0.250652 0.499339
1.000000 0.249989 0.500037
0.000000 0.499702 0.499219
0.248051 0.498344 0.499586
0.488712 0.485923 0.499441
0.757163 0.499775 0.493225
0.999949 0.500185 0.498974
0.000000 0.750000 0.500000
0.250145 0.750039 0.500027
0.497770 0.753781 0.504759
0.770546 0.763716 0.523260
1.000000 0.752280 0.497791
0.000001 1.000000 0.500000
0.250000 1.000000 0.500000
0.500000 1.000000 0.500000
0.750039 1.000000 0.500064
1.000000 1.000000 0.543447
0.000000 0.000000 0.750000
0.250000 0.000000 0.750000
0.500000 0.000000 0.750000
0.750000 0.000000 0.750000
1.000000 0.000000 0.750000
0.000005 0.250002 0.749989
0.250003 0.250006 0.749986
0.500000 0.250000 0.750000
0.750022 0.249976 0.750019
0.996250 0.255278 0.743847
0.000023 0.499999 0.749998
0.267677 0.495539 0.747605
0.498711 0.499745 0.750919
0.749141 0.500388 0.749882
0.990984 0.513319 0.721876
0.000000 0.750000 0.750000
0.250005 0.750003 0.750001
0.501271 0.753401 0.757859
0.781178 0.792132 0.797716
1.000000 0.758817 0.751563
0.000000 1.000000 0.750000
0.264867 0.999868 0.749731
0.500000 1.000000 0.750000
0.755372 0.999104 0.751050
0.999861 1.000000 0.746097
0.000000 0.000000 1.000000
0.250000 0.000000 1.000000
0.500000 0.000000 1.000000
0.750000 0.000000 1.000000
1.000000 0.000000 1.000000
0.000000 0.250000 1.000000
0.250000 0.249992 1.000000
0.500000 0.250000 1.000000
0.750000 0.250000 1.000000
0.987482 0.262253 0.985994
0.000000 0.500000 1.000000
0.249797 0.500383 0.999215
0.500004 0.500002 0.999988
0.750000 0.500000 1.000000
0.979773 0.513787 0.976737
0.000790 0.750037 0.999943
0.254259 0.750244 0.999438
0.517132 0.753951 0.997825
0.751141 0.758351 1.000000
0.999459 0.755939 1.000000
0.000000 1.000000 1.000000
0.249986 0.999998 1.000000
0.500722 0.999901 0.999787
0.784555 0.995248 0.984023
0.999955 0.999973 0.999885
