pifilm/data/pifilm.cube
TITLE "kodachrome"
LUT_3D_SIZE 9
DOMAIN_MIN 0.0 0.0 0.0
DOMAIN_MAX 1.0 1.0 1.0
0.000685 0.000503 0.000114
0.066907 0.000000 0.002631
0.203073 0.000159 0.000611
0.344099 0.014152 0.000033
0.482260 0.026347 0.000534
0.625001 0.000000 0.000004
0.751435 0.008361 0.006993
0.875000 0.000000 0.000000
1.000000 0.000000 0.000000
0.005890 0.098528 0.000015
0.100235 0.103545 0.000000
0.212850 0.100802 0.000000
0.365613 0.118496 0.000000
0.499034 0.125134 0.000000
0.624916 0.125281 0.000000
0.750003 0.125028 0.000041
0.875001 0.124999 0.000007
1.000000 0.125000 0.000000
0.000020 0.249966 0.000011
0.119071 0.235442 0.000000
0.242159 0.239031 0.000000
0.369730 0.243019 0.000000
0.498008 0.248908 0.000000
0.625001 0.249891 0.000000
0.750000 0.250002 0.000000
0.875000 0.250002 0.000004
1.000000 0.250000 0.000000
0.000000 0.375000 0.000000
0.125009 0.375005 0.000000
0.248745 0.364364 0.008448
0.374762 0.372366 0.000500
0.500000 0.374989 0.000000
0.625487 0.374194 0.000001
0.750000 0.374998 0.000005
0.875001 0.374997 0.000008
1.000000 0.375000 0.000000
0.000000 0.500000 0.000000
0.125000 0.500000 0.000000
0.250007 0.500003 0.000000
0.365699 0.500124 0.033644
0.499708 0.498867 0.000000
0.625003 0.499988 0.000000
0.750000 0.500000 0.000000
0.874999 0.500000 0.000000
1.000000 0.499998 0.000000
0.000000 0.625000 0.000000
0.125000 0.625000 0.000000
0.250000 0.625000 0.000000
0.375005 0.625000 0.000000
0.495223 0.625111 0.019117
0.625022 0.624992 0.000191
0.750013 0.624997 0.000000
0.874999 0.625000 0.000000
1.000000 0.625000 0.000000
0.000000 0.750000 0.000000
0.125000 0.750000 0.000000
0.250000 0.750000 0.000000
0.375000 0.750000 0.000000
0.500000 0.750000 0.000000
0.625051 0.750281 0.003276
0.754368 0.750716 0.011818
0.875036 0.750002 0.000058
1.000000 0.749999 0.000000
0.000000 0.875000 0.000000
0.125000 0.875000 0.000000
0.250000 0.875000 0.000000
0.375000 0.875000 0.000000
0.500000 0.875000 0.000000
0.625000 0.875000 0.000000
0.749997 0.874999 0.000000
0.874991 0.874996 0.000016
1.000000 0.875000 0.000000
0.000001 1.000000 0.000000
0.125000 1.000000 0.000000
0.250000 1.000000 0.000000
0.375000 1.000000 0.000000
0.500000 1.000000 0.000000
0.625000 1.000000 0.000000
0.750000 1.000000 0.000000
0.875000 1.000000 0.000000
1.000000 1.000000 0.000000
0.000290 0.000000 0.076398
0.118627 0.000044 0.117101
0.240049 0.001486 0.119356
0.374153 0.000585 0.124792
0.499839 0.000192 0.124972
0.624553 0.002307 0.122806
0.749995 0.000000 0.124987
0.875000 0.000000 0.125000
1.000000 0.000000 0.125000
0.000000 0.107913 0.106617
0.084923 0.082901 0.084843
0.207139 0.101346 0.113320
0.356064 0.120033 0.113251
0.483550 0.131264 0.109373
0.623278 0.130302 0.113175
0.751897 0.131436 0.119172
0.874998 0.125003 0.124997
1.000000 0.125000 0.125000
0.000000 0.247232 0.122315
0.119811 0.235825 0.110873
0.231988 0.225252 0.108325
0.355341 0.233110 0.122385
0.497250 0.248003 0.115525
0.625013 0.250130 0.123156
0.750473 0.249964 0.122431
0.874999 0.250003 0.124998
1.000000 0.250000 0.125000
0.000116 0.374415 0.125138
0.125435 0.374403 0.125354
0.250274 0.370510 0.125376
0.371360 0.368467 0.121059
0.498934 0.368540 0.102909
0.627023 0.372177 0.108758
0.751897 0.375015 0.122319
0.874979 0.375053 0.124925
0.999999 0.375003 0.125002
0.000000 0.500000 0.125000
0.126643 0.499859 0.126845
0.249679 0.499899 0.125662
0.367116 0.500260 0.137036
0.496276 0.497390 0.126346
0.625645 0.498556 0.115769
0.750330 0.499875 0.124417
0.875800 0.499828 0.124529
1.000000 0.500004 0.124989
0.000000 0.625000 0.125000
0.125000 0.625000 0.125000
0.249999 0.625000 0.124999
0.374865 0.624968 0.125638
0.496834 0.625202 0.131726
0.627901 0.622810 0.127639
0.760731 0.622459 0.108706
0.875077 0.624997 0.124921
1.000000 0.625032 0.125069
0.000000 0.750000 0.125000
0.125000 0.750000 0.125000
0.250000 0.750000 0.125000
0.375000 0.750000 0.125000
0.499986 0.750009 0.125011
0.625005 0.750125 0.125619
0.761595 0.752739 0.142792
0.892756 0.750629 0.129526
1.000000 0.751210 0.135323
0.000000 0.875000 0.125000
0.125000 0.875000 0.125000
0.250000 0.875000 0.125000
0.375000 0.875000 0.125000
0.500000 0.875000 0.125000
0.625000 0.875000 0.125000
0.750006 0.875010 0.125010
0.881095 0.875810 0.130137
1.000000 0.874227 0.157011
0.000000 1.000000 0.125000
0.125000 1.000000 0.125000
0.250000 1.000000 0.125000
0.375000 1.000000 0.125000
0.500000 1.000000 0.125000
0.625000 1.000000 0.125000
0.750000 1.000000 0.125000
0.875006 1.000000 0.125042
0.999801 0.996903 0.132015
0.001299 0.000000 0.229378
0.124357 0.000130 0.248980
0.249798 0.000072 0.249777
0.359194 0.016638 0.239956
0.500036 0.000000 0.250025
0.625006 0.000000 0.250008
0.750063 0.000123 0.249875
0.875000 0.000000 0.250000
1.000000 0.000000 0.250000
0.000000 0.109760 0.232898
0.116152 0.105664 0.228987
0.247796 0.124145 0.248115
0.356139 0.128004 0.242911
0.496625 0.127497 0.248330
0.622556 0.129774 0.244938
0.749082 0.133221 0.238411
0.875005 0.124999 0.249980
0.999999 0.125000 0.250001
0.002553 0.243144 0.245140
0.125967 0.229691 0.233930
0.228334 0.225208 0.235900
0.342080 0.240278 0.249498
0.488488 0.250153 0.245914
0.619466 0.253747 0.239582
0.751926 0.250668 0.239964
0.873820 0.252782 0.245444
0.999999 0.250005 0.250008
0.000005 0.375004 0.250000
0.120108 0.373517 0.249514
0.257131 0.362657 0.246781
0.359629 0.362199 0.246353
0.483772 0.364048 0.256029
0.629264 0.369099 0.225935
0.751893 0.375354 0.243236
0.875180 0.377765 0.240817
1.000000 0.374945 0.249848
0.000000 0.500000 0.250000
0.125152 0.499999 0.250375
0.249370 0.500041 0.250241
0.356039 0.501186 0.248490
0.488011 0.495891 0.257134
0.635559 0.490700 0.239222
0.769000 0.492060 0.215324
0.880671 0.498508 0.237006
0.999999 0.500004 0.249987
0.000000 0.625000 0.250000
0.125007 0.624999 0.250007
0.250222 0.624876 0.250769
0.374041 0.624920 0.251292
0.481347 0.626261 0.266385
0.621149 0.624735 0.274390
0.785257 0.617025 0.222445
0.880237 0.624421 0.243981
0.999998 0.625577 0.250247
0.000000 0.750000 0.250000
0.125000 0.750000 0.250000
0.249985 0.750009 0.250014
0.375000 0.749999 0.250000
0.499933 0.750032 0.250106
0.625040 0.751810 0.254346
0.761950 0.754169 0.260115
0.879096 0.750241 0.250248
1.000000 0.751504 0.254395
0.000000 0.875000 0.250000
0.125000 0.875000 0.250000
0.250000 0.875000 0.250000
0.375000 0.875000 0.250000
0.500000 0.875000 0.250000
0.625001 0.874997 0.249993
0.750029 0.875086 0.250110
0.884393 0.876869 0.261671
1.000000 0.875710 0.264739
0.000000 1.000000 0.250000
0.125000 1.000000 0.250000
0.250000 1.000000 0.250000
0.375000 1.000000 0.250000
0.500000 1.000000 0.250000
0.625000 1.000000 0.250000
0.750000 1.000000 0.250000
0.874990 0.999999 0.250002
1.000000 0.994520 0.243736
0.000000 0.000000 0.374551
0.125000 0.000000 0.375000
0.250010 0.000000 0.375012
0.373757 0.000493 0.373496
0.490848 0.013741 0.369476
0.624000 0.002069 0.373893
0.749997 0.000014 0.374990
0.875005 0.000000 0.375021
0.999999 0.000000 0.375000
0.000000 0.111795 0.357398
0.122843 0.121098 0.360888
0.249380 0.124948 0.373789
0.374955 0.125022 0.374957
0.495573 0.128911 0.372603
0.624578 0.125570 0.374694
0.749995 0.125037 0.374938
0.875003 0.124991 0.375006
1.000000 0.124999 0.375001
0.000100 0.249808 0.374687
0.116964 0.232725 0.342005
0.252477 0.233178 0.343046
0.368436 0.247967 0.371144
0.484989 0.255538 0.375384
0.617718 0.255235 0.372281
0.749475 0.254959 0.368217
0.873732 0.253501 0.370809
0.999760 0.248925 0.365544
0.000000 0.374366 0.374931
0.126262 0.371062 0.375365
0.254318 0.364883 0.361739
0.360967 0.358921 0.371251
0.473153 0.371484 0.374088
0.617670 0.377854 0.375978
0.757905 0.377350 0.361371
0.875898 0.376547 0.368530
0.999360 0.375863 0.373626
0.000000 0.500000 0.375000
0.124677 0.499985 0.374995
0.241858 0.499632 0.374515
0.379597 0.492568 0.367211
0.478921 0.496380 0.364327
0.627311 0.489337 0.369551
0.776350 0.490998 0.339932
0.878499 0.499303 0.365791
1.000000 0.500005 0.373880
0.000000 0.625000 0.375000
0.125000 0.625000 0.375000
0.249995 0.625000 0.374999
0.374861 0.625004 0.375009
0.483796 0.624369 0.382566
0.620999 0.626231 0.394037
0.775455 0.623242 0.373081
0.888843 0.623839 0.364377
1.000000 0.625021 0.374932
0.000000 0.750000 0.375000
0.125000 0.750000 0.375000
0.250000 0.750000 0.375000
0.374986 0.750037 0.375126
0.499243 0.750459 0.376152
0.623286 0.755829 0.391986
0.772821 0.758424 0.402710
0.891660 0.751517 0.368994
1.000000 0.755583 0.370688
0.000000 0.875000 0.375000
0.125000 0.875000 0.375000
0.250000 0.875000 0.375000
0.374997 0.874999 0.374995
0.500000 0.875000 0.375000
0.625238 0.875949 0.376461
0.750681 0.876324 0.377613
0.886457 0.877309 0.387553
1.000000 0.875007 0.375059
0.000000 1.000000 0.375000
0.125000 1.000000 0.375000
0.250000 1.000000 0.375000
0.375000 1.000000 0.375000
0.499972 1.000000 0.374983
0.625000 1.000000 0.375000
0.749999 1.000000 0.374999
0.875168 0.999952 0.374940
1.000000 0.999886 0.379410
0.000000 0.000008 0.500012
0.125000 0.000000 0.499998
0.250000 0.000000 0.500000
0.375001 0.000000 0.500001
0.500007 0.000000 0.500005
0.622429 0.004519 0.497877
0.750008 0.000000 0.500008
0.875004 0.000000 0.500008
0.999999 0.000000 0.500000
0.000037 0.122904 0.490042
0.124955 0.124937 0.499552
0.250000 0.125000 0.500007
0.375003 0.124997 0.500004
0.500008 0.124991 0.500006
0.623750 0.126733 0.498949
0.749999 0.125001 0.499999
0.874970 0.125080 0.499944
1.000000 0.124998 0.500009
0.000859 0.249600 0.497019
0.124842 0.248150 0.485202
0.250920 0.248883 0.497522
0.374997 0.250001 0.499992
0.499295 0.250394 0.499734
0.620499 0.253576 0.497919
0.749607 0.250652 0.499339
0.874431 0.250822 0.499301
1.000000 0.249989 0.500037
0.001641 0.374167 0.499334
0.125616 0.374237 0.499223
0.230879 0.363835 0.493928
0.374017 0.364051 0.483681
0.492206 0.373744 0.501211
0.618011 0.377551 0.500884
0.749002 0.376513 0.497998
0.875280 0.375602 0.498101
0.999889 0.375243 0.497914
0.000000 0.499702 0.499219
0.121067 0.498523 0.497405
0.248051 0.498344 0.499586
0.369679 0.490542 0.488459
0.488712 0.485923 0.499441
0.614316 0.497052 0.489988
0.757163 0.499775 0.493225
0.877938 0.499662 0.494844
0.999949 0.500185 0.498974
0.000000 0.625000 0.500000
0.125000 0.625000 0.500000
0.246160 0.624980 0.497838
0.349262 0.627792 0.486071
0.500942 0.624420 0.486639
0.632723 0.635279 0.498928
0.787238 0.634599 0.501149
0.891537 0.624650 0.489791
1.000000 0.626920 0.492943
0.000000 0.750000 0.500000
0.125000 0.750000 0.500000
0.250145 0.750039 0.500027
0.375001 0.749997 0.499998
0.497770 0.753781 0.504759
0.634098 0.758978 0.519312
0.770546 0.763716 0.523260
0.911444 0.757592 0.501355
1.000000 0.752280 0.497791
0.000000 0.875000 0.500000
0.125000 0.875000 0.500000
0.250007 0.875000 0.499999
0.375009 0.875004 0.500004
0.500000 0.875000 0.500000
0.624830 0.875614 0.501167
0.753817 0.878057 0.507341
0.893411 0.878603 0.506918
1.000000 0.877129 0.501138
0.000001 1.000000 0.500000
0.125000 1.000000 0.500000
0.250000 1.000000 0.500000
0.375000 1.000000 0.500000
0.500000 1.000000 0.500000
0.625000 1.000000 0.500000
0.750039 1.000000 0.500064
0.904169 0.997620 0.530920
1.000000 1.000000 0.543447
0.000000 0.000000 0.625000
0.125000 0.000000 0.625000
0.250000 0.000000 0.625000
0.375000 0.000000 0.625000
0.500000 0.000000 0.625000
0.625001 0.000000 0.625001
0.750000 0.000000 0.625000
0.875000 0.000000 0.625000
1.000000 0.000000 0.625000
0.000422 0.124661 0.623353
0.125000 0.125000 0.625012
0.250000 0.125000 0.625001
0.375000 0.125000 0.625000
0.500000 0.125000 0.625000
0.623740 0.126576 0.623991
0.749998 0.125003 0.624999
0.875000 0.125000 0.625000
1.000000 0.124970 0.625033
0.000648 0.249999 0.622990
0.126343 0.250452 0.622116
0.250129 0.250326 0.623764
0.374993 0.250012 0.624976
0.498560 0.251156 0.623610
0.624990 0.250000 0.625001
0.745532 0.254448 0.621032
0.872891 0.252772 0.621965
1.000000 0.249988 0.625013
0.000980 0.375015 0.624444
0.128564 0.374121 0.622365
0.251708 0.373715 0.623722
0.372948 0.374597 0.626372
0.498807 0.375024 0.625435
0.624378 0.375292 0.624717
0.747970 0.376540 0.622940
0.875000 0.375000 0.625002
1.000000 0.374994 0.625011
0.000759 0.499720 0.625130
0.136018 0.495222 0.627314
0.265179 0.485431 0.636381
0.352159 0.490202 0.648677
0.493011 0.491883 0.638360
0.615418 0.499014 0.630167
0.745693 0.501882 0.624376
0.875053 0.499995 0.624934
0.993425 0.506536 0.613939
0.000000 0.624997 0.624981
0.120116 0.624947 0.623818
0.248426 0.624922 0.624331
0.374844 0.624668 0.628252
0.497016 0.627583 0.635870
0.629552 0.634938 0.648364
0.767025 0.639449 0.633572
0.891289 0.629451 0.618606
1.000000 0.625385 0.624428
0.000000 0.750000 0.625000
0.124998 0.749999 0.625000
0.250193 0.750101 0.625075
0.377223 0.752932 0.626590
0.499788 0.751081 0.625929
0.644043 0.767260 0.644870
0.787188 0.778920 0.642998
0.932232 0.771038 0.626280
1.000000 0.764922 0.619496
0.000000 0.875000 0.625000
0.124999 0.875000 0.625000
0.250012 0.875000 0.624998
0.374961 0.874992 0.624993
0.500000 0.874999 0.624999
0.625058 0.876006 0.626761
0.760695 0.880155 0.634356
0.895222 0.886402 0.636121
1.000000 0.881027 0.627125
0.000000 1.000000 0.625000
0.128699 0.999616 0.625045
0.249997 1.000000 0.625000
0.375000 1.000000 0.625000
0.500000 1.000000 0.625000
0.625000 1.000000 0.625000
0.751300 1.000000 0.625595
0.892892 0.999912 0.628081
1.000000 1.000000 0.625671
0.000000 0.000000 0.750000
0.125000 0.000000 0.750000
0.250000 0.000000 0.750000
0.375000 0.000000 0.750000
0.500000 0.000000 0.750000
0.625000 0.000000 0.750000
0.750000 0.000000 0.750000
0.875000 0.000000 0.750000
1.000000 0.000000 0.750000
0.000000 0.125000 0.750000
0.125000 0.125000 0.750000
0.250000 0.125000 0.750000
0.375000 0.125000 0.750000
0.500000 0.125000 0.750000
0.625000 0.125000 0.750000
0.750000 0.125000 0.750000
0.875000 0.125000 0.750000
1.000000 0.125000 0.750000
0.000005 0.250002 0.749989
0.125013 0.250005 0.749966
0.250003 0.250006 0.749986
0.374999 0.249998 0.750004
0.500000 0.250000 0.750000
0.624993 0.250007 0.749992
0.750022 0.249976 0.750019
0.871244 0.254729 0.745786
0.996250 0.255278 0.743847
0.000694 0.375810 0.747161
0.128216 0.375478 0.746931
0.250445 0.374995 0.749557
0.375246 0.375140 0.748854
0.500000 0.375000 0.750000
0.624998 0.375001 0.749999
0.749961 0.375021 0.749979
0.874915 0.375055 0.749941
1.000000 0.374998 0.750005
0.000023 0.499999 0.749998
0.147138 0.497600 0.746854
0.267677 0.495539 0.747605
0.375630 0.498787 0.750693
0.498711 0.499745 0.750919
0.624204 0.500119 0.750194
0.749141 0.500388 0.749882
0.874544 0.500297 0.749823
0.990984 0.513319 0.721876
0.000000 0.624998 0.750036
0.124515 0.624917 0.750383
0.267778 0.622431 0.757009
0.390130 0.623607 0.768703
0.486731 0.630477 0.801485
0.627891 0.631777 0.782493
0.751489 0.630954 0.759459
0.875248 0.627362 0.751094
0.999804 0.630510 0.746455
0.000000 0.750000 0.750000
0.124964 0.750007 0.750012
0.250005 0.750003 0.750001
0.377179 0.751532 0.752401
0.501271 0.753401 0.757859
0.637079 0.778619 0.796481
0.781178 0.792132 0.797716
0.901496 0.778069 0.769527
1.000000 0.758817 0.751563
0.000000 0.875000 0.750000
0.129895 0.875319 0.750002
0.250007 0.875002 0.750002
0.375338 0.875017 0.750038
0.500040 0.875029 0.750026
0.625685 0.876000 0.751374
0.764869 0.891537 0.772548
0.910016 0.905088 0.764424
1.000000 0.896929 0.744245
0.000000 1.000000 0.750000
0.124990 1.000000 0.750002
0.264867 0.999868 0.749731
0.374848 1.000000 0.750040
0.500000 1.000000 0.750000
0.624990 1.000000 0.749996
0.755372 0.999104 0.751050
0.883090 0.999991 0.750711
0.999861 1.000000 0.746097
0.000000 0.000000 0.875000
0.125000 0.000000 0.875000
0.250000 0.000000 0.875000
0.375000 0.000000 0.875000
0.500000 0.000000 0.875000
0.625000 0.000000 0.875000
0.750000 0.000000 0.875000
0.875000 0.000000 0.875000
1.000000 0.000000 0.875000
0.000000 0.125000 0.875000
0.125000 0.125000 0.875000
0.250000 0.125000 0.875000
0.375000 0.125000 0.875000
0.500000 0.125000 0.875000
0.625000 0.125000 0.875000
0.750000 0.125000 0.875000
0.875000 0.125000 0.875000
1.000000 0.125000 0.875000
0.000000 0.250000 0.875000
0.125000 0.250000 0.875000
0.249951 0.250079 0.874838
0.375000 0.249999 0.875002
0.500000 0.250000 0.875000
0.625000 0.250000 0.875000
0.750000 0.250000 0.875000
0.875007 0.249992 0.875008
0.996170 0.254644 0.870002
0.000000 0.375000 0.875001
0.124994 0.375000 0.875004
0.250855 0.375341 0.873388
0.375004 0.375003 0.874987
0.500000 0.375000 0.875000
0.625000 0.375000 0.875000
0.749989 0.375008 0.874990
0.874998 0.375004 0.874995
1.000000 0.374996 0.875006
0.000010 0.500001 0.874996
0.124998 0.500001 0.875000
0.271643 0.504414 0.835298
0.378135 0.499866 0.869515
0.499970 0.500005 0.874931
0.625008 0.499997 0.875001
0.749628 0.500199 0.874622
0.874974 0.500014 0.874980
1.000000 0.499987 0.875011
0.000000 0.625005 0.875040
0.125350 0.625044 0.875437
0.253694 0.624768 0.874899
0.380670 0.624902 0.875496
0.501976 0.625994 0.879222
0.620685 0.627896 0.880568
0.749385 0.626104 0.875438
0.874967 0.625031 0.874978
0.999157 0.626463 0.874762
0.000000 0.750000 0.875000
0.124970 0.750005 0.875014
0.251409 0.750440 0.875490
0.385994 0.751174 0.874456
0.511684 0.755495 0.881326
0.619540 0.780520 0.915801
0.773231 0.781898 0.906137
0.877147 0.761179 0.879451
0.999994 0.752025 0.875567
0.000000 0.875000 0.875000
0.124999 0.875000 0.875000
0.249992 0.874998 0.875000
0.377646 0.875764 0.875595
0.505036 0.876928 0.877008
0.634143 0.879944 0.879852
0.775478 0.914721 0.906337
0.907451 0.916086 0.912359
1.000000 0.895580 0.886466
0.000001 1.000000 0.875000
0.125000 1.000000 0.875000
0.250148 0.999968 0.874978
0.376808 0.999567 0.874698
0.499992 1.000000 0.875001
0.624995 0.999999 0.875000
0.754926 0.999896 0.876073
0.880089 0.999631 0.877092
1.000000 1.000000 0.872552
0.000000 0.000000 1.000000
0.125000 0.000000 1.000000
0.250000 0.000000 1.000000
0.375000 0.000000 1.000000
0.500000 0.000000 1.000000
0.625000 0.000000 1.000000
0.750000 0.000000 1.000000
0.875000 0.000000 1.000000
1.000000 0.000000 1.000000
0.000000 0.125000 1.000000
0.125000 0.125000 1.000000
0.250000 0.125000 1.000000
0.375000 0.125000 1.000000
0.500000 0.125000 1.000000
0.625000 0.125000 1.000000
0.750000 0.125000 1.000000
0.875000 0.125000 1.000000
1.000000 0.124999 1.000000
0.000000 0.250000 1.000000
0.125000 0.250005 0.999990
0.250000 0.249992 1.000000
0.375000 0.250000 1.000000
0.500000 0.250000 1.000000
0.625000 0.250000 1.000000
0.750000 0.250000 1.000000
0.875000 0.250000 1.000000
0.987482 0.262253 0.985994
0.000000 0.375000 1.000000
0.125003 0.375001 0.999996
0.249915 0.375582 0.998370
0.375419 0.379689 0.986819
0.500000 0.375000 1.000000
0.625000 0.375000 1.000000
0.750000 0.375000 1.000000
0.874995 0.375004 0.999993
0.973876 0.395150 0.968893
0.000000 0.500000 1.000000
0.125486 0.500371 0.998900
0.249797 0.500383 0.999215
0.383053 0.501465 0.987850
0.500004 0.500002 0.999988
0.625000 0.500000 1.000000
0.750000 0.500000 1.000000
0.874666 0.500191 0.999645
0.979773 0.513787 0.976737
0.000000 0.625000 1.000000
0.124983 0.624998 1.000000
0.253086 0.625778 0.998546
0.377358 0.625283 0.998507
0.503080 0.625405 0.997348
0.623325 0.626534 0.999330
0.749269 0.625560 0.999528
0.871362 0.627366 0.996208
0.995424 0.628840 0.995218
0.000790 0.750037 0.999943
0.129483 0.750203 0.999336
0.254259 0.750244 0.999438
0.381718 0.751162 1.000000
0.517132 0.753951 0.997825
0.631809 0.762060 1.000000
0.751141 0.758351 1.000000
0.872778 0.757727 0.998317
0.999459 0.755939 1.000000
0.000119 0.875005 0.999981
0.126503 0.875145 0.999692
0.250117 0.875012 0.999974
0.398425 0.878402 0.990974
0.512225 0.876398 0.995876
0.646293 0.884194 0.999216
0.756399 0.910931 1.000000
0.903513 0.903554 0.997035
1.000000 0.886904 1.000000
0.000000 1.000000 1.000000
0.125000 1.000000 1.000000
0.249986 0.999998 1.000000
0.380443 0.998995 0.997859
0.500722 0.999901 0.999787
0.637392 0.998127 0.999307
0.784555 0.995248 0.984023
0.900826 0.996181 0.970409
0.999955 0.999973 0.999885
