pifilm/data/pifilm.cube
TITLE "kodachrome"
LUT_3D_SIZE 33
DOMAIN_MIN 0.0 0.0 0.0
DOMAIN_MAX 1.0 1.0 1.0
0.000685 0.000503 0.000114
0.021439 0.000000 0.000000
0.032715 0.000000 0.000133
0.048576 0.000000 0.001233
0.066907 0.000000 0.002631
0.082006 0.000000 0.002328
0.127372 0.000000 0.003120
0.159270 0.000000 0.002664
0.203073 0.000159 0.000611
0.245098 0.002951 0.000209
0.279881 0.005076 0.000000
0.310275 0.009068 0.000000
0.344099 0.014152 0.000033
0.373881 0.025787 0.002676
0.416491 0.020017 0.002332
0.442508 0.031731 0.003173
0.482260 0.026347 0.000534
0.530091 0.001905 0.000000
0.562442 0.000202 0.000000
0.593740 0.000025 0.000000
0.625001 0.000000 0.000004
0.656248 0.000000 0.000000
0.687500 0.000000 0.000000
0.719105 0.002071 0.001732
0.751435 0.008361 0.006993
0.781268 0.000105 0.000086
0.812495 0.000000 0.000000
0.843749 0.000000 0.000000
0.875000 0.000000 0.000000
0.906250 0.000000 0.000000
0.937500 0.000000 0.000000
0.968750 0.000000 0.000000
1.000000 0.000000 0.000000
0.000000 0.016023 0.000000
0.002922 0.013336 0.000081
0.027187 0.008550 0.000000
0.051231 0.004555 0.000000
0.075420 0.002265 0.000000
0.107971 0.003221 0.000000
0.139295 0.005658 0.000000
0.170997 0.013121 0.000000
0.206030 0.015642 0.000000
0.246459 0.020816 0.000000
0.288569 0.023723 0.000000
0.327976 0.029935 0.000000
0.367263 0.033571 0.000092
0.400943 0.034076 0.000250
0.437175 0.031486 0.000005
0.468392 0.031731 0.000042
0.499574 0.031809 0.000023
0.530937 0.031719 0.000000
0.561994 0.032071 0.000000
0.593738 0.031272 0.000000
0.624952 0.031670 0.000000
0.655849 0.034535 0.000000
0.687476 0.031446 0.000000
0.718751 0.031244 0.000006
0.750010 0.031307 0.000049
0.781250 0.031252 0.000001
0.812499 0.031246 0.000000
0.843749 0.031244 0.000000
0.875000 0.031250 0.000000
0.906250 0.031250 0.000000
0.937500 0.031250 0.000000
0.968750 0.031250 0.000000
1.000000 0.031250 0.000000
0.000000 0.030692 0.000662
0.007214 0.033265 0.000492
0.013524 0.036093 0.000409
0.037164 0.034974 0.000000
0.071280 0.030144 0.000000
0.108431 0.025461 0.000000
0.140930 0.023717 0.000000
0.179750 0.028182 0.000000
0.216140 0.039483 0.000000
0.250295 0.044931 0.000000
0.285291 0.048408 0.000000
0.323183 0.057011 0.000000
0.369010 0.062783 0.000285
0.399326 0.063578 0.001087
0.435554 0.062807 0.000257
0.468211 0.062671 0.000000
0.499862 0.062581 0.000000
0.530789 0.063191 0.000000
0.561584 0.063853 0.000000
0.593644 0.062647 0.000000
0.624923 0.063155 0.000001
0.655621 0.067649 0.000000
0.687458 0.062842 0.000000
0.718748 0.062493 0.000000
0.750048 0.063013 0.000770
0.781333 0.063357 0.001253
0.812501 0.062510 0.000015
0.843750 0.062497 0.000000
0.875000 0.062500 0.000000
0.906250 0.062500 0.000000
0.937500 0.062500 0.000000
0.968750 0.062500 0.000000
1.000000 0.062500 0.000000
0.000779 0.056609 0.000000
0.014534 0.059068 0.000000
0.024478 0.055077 0.000000
0.048517 0.060258 0.000000
0.075762 0.064868 0.000000
0.107537 0.066766 0.000000
0.139854 0.065593 0.000000
0.173881 0.065048 0.000000
0.214684 0.068899 0.000000
0.258901 0.075372 0.000000
0.300713 0.084853 0.000000
0.331900 0.086155 0.000000
0.371663 0.092308 0.000095
0.400648 0.093393 0.000437
0.431504 0.093576 0.000190
0.465388 0.093943 0.000000
0.499600 0.093819 0.000000
0.531260 0.093752 0.000001
0.562335 0.093981 0.000000
0.592896 0.095187 0.000000
0.624871 0.093974 0.000000
0.656244 0.093809 0.000000
0.687478 0.093905 0.000000
0.718742 0.093842 0.000000
0.750209 0.095895 0.003137
0.781580 0.097141 0.004960
0.812502 0.093788 0.000051
0.843748 0.093739 0.000000
0.875000 0.093750 0.000000
0.906250 0.093750 0.000000
0.937500 0.093750 0.000000
0.968750 0.093750 0.000000
1.000000 0.093750 0.000000
0.005890 0.098528 0.000015
0.025383 0.108544 0.000000
0.037533 0.090911 0.000000
0.060836 0.089411 0.000000
0.100235 0.103545 0.000000
0.124302 0.103458 0.000000
0.148604 0.101994 0.000000
0.188785 0.105867 0.000000
0.212850 0.100802 0.000000
0.248753 0.104100 0.000000
0.288070 0.109702 0.000000
0.331000 0.116411 0.000000
0.365613 0.118496 0.000000
0.400003 0.120372 0.000000
0.432685 0.123568 0.000002
0.462902 0.124504 0.000000
0.499034 0.125134 0.000000
0.529711 0.125842 0.000006
0.560065 0.127007 0.000011
0.593035 0.126001 0.000005
0.624916 0.125281 0.000000
0.656253 0.124984 0.000001
0.687495 0.125023 0.000000
0.718749 0.125006 0.000001
0.750003 0.125028 0.000041
0.781254 0.125043 0.000063
0.812499 0.125001 0.000000
0.843750 0.125000 0.000000
0.875001 0.124999 0.000007
0.906250 0.125000 0.000000
0.937500 0.125000 0.000000
0.968750 0.125000 0.000000
1.000000 0.125000 0.000000
0.006112 0.135976 0.000000
0.031088 0.148908 0.000000
0.054922 0.138540 0.000000
0.072556 0.119485 0.000000
0.107531 0.128752 0.000000
0.137415 0.135146 0.000000
0.167719 0.140682 0.000000
0.202217 0.144770 0.000000
0.231661 0.143126 0.000000
0.249584 0.135849 0.000000
0.282178 0.137738 0.000000
0.322855 0.143311 0.000000
0.363842 0.150100 0.000000
0.398515 0.151995 0.000000
0.436774 0.155735 0.000006
0.466389 0.155514 0.000002
0.497293 0.156170 0.000000
0.525088 0.158415 0.000000
0.559022 0.159485 0.000000
0.589899 0.161364 0.000000
0.624584 0.157688 0.000002
0.656252 0.156276 0.000001
0.687040 0.158221 0.000001
0.718611 0.156844 0.000000
0.749999 0.156244 0.000000
0.781249 0.156236 0.000000
0.812500 0.156250 0.000000
0.843751 0.156249 0.000007
0.875007 0.156244 0.000041
0.906250 0.156250 0.000001
0.937500 0.156250 0.000000
0.968750 0.156250 0.000000
1.000000 0.156250 0.000000
0.000897 0.185445 0.000000
0.031476 0.185500 0.000000
0.060578 0.179790 0.000000
0.082615 0.162047 0.000000
0.114068 0.156012 0.000000
0.142649 0.159191 0.000000
0.172916 0.167506 0.000000
0.201942 0.173619 0.000000
0.233425 0.175277 0.000000
0.268867 0.178288 0.000000
0.288531 0.169749 0.002222
0.321691 0.171931 0.000000
0.367135 0.181902 0.000000
0.402962 0.185438 0.000000
0.437483 0.187487 0.000009
0.467837 0.187212 0.000005
0.497624 0.187246 0.000000
0.527268 0.187838 0.000000
0.562205 0.187575 0.000000
0.593711 0.187564 0.000011
0.624996 0.187515 0.000003
0.656246 0.187514 0.000000
0.687221 0.188729 0.000000
0.718529 0.188523 0.000000
0.749998 0.187510 0.000000
0.781251 0.187496 0.000000
0.812500 0.187500 0.000000
0.843751 0.187499 0.000005
0.875003 0.187497 0.000015
0.906250 0.187500 0.000000
0.937498 0.187503 0.000000
0.968749 0.187501 0.000000
1.000000 0.187500 0.000000
0.001588 0.215224 0.000647
0.032404 0.214945 0.000000
0.062617 0.213079 0.000023
0.089691 0.207691 0.000070
0.118864 0.195654 0.000000
0.151121 0.192301 0.000000
0.177787 0.196004 0.000000
0.206767 0.204826 0.000000
0.239358 0.208571 0.000000
0.270561 0.209566 0.000000
0.300699 0.208270 0.000000
0.328314 0.203958 0.000000
0.361232 0.204709 0.000000
0.401737 0.214136 0.000000
0.436807 0.218187 0.000000
0.466725 0.217578 0.000000
0.498110 0.218555 0.000000
0.523176 0.218653 0.000000
0.558017 0.218943 0.000000
0.593400 0.218745 0.000008
0.625005 0.218732 0.000001
0.656249 0.218783 0.000000
0.687048 0.221368 0.000000
0.718548 0.219815 0.000000
0.749999 0.218756 0.000000
0.781251 0.218744 0.000000
0.812503 0.218740 0.000000
0.843750 0.218750 0.000000
0.875000 0.218750 0.000000
0.906250 0.218750 0.000000
0.937499 0.218752 0.000000
0.968750 0.218751 0.000000
1.000000 0.218750 0.000000
0.000020 0.249966 0.000011
0.031301 0.249784 0.000000
0.062375 0.248743 0.000000
0.091674 0.246188 0.000014
0.119071 0.235442 0.000000
0.152618 0.220005 0.000000
0.182805 0.227928 0.000000
0.211385 0.236283 0.000000
0.242159 0.239031 0.000000
0.274221 0.242160 0.000000
0.307089 0.244878 0.000000
0.340896 0.247091 0.000000
0.369730 0.243019 0.000000
0.402862 0.244604 0.000000
0.436041 0.248286 0.000000
0.465139 0.247480 0.000010
0.498008 0.248908 0.000000
0.529565 0.249896 0.000000
0.559330 0.250202 0.000000
0.592770 0.249760 0.000000
0.625001 0.249891 0.000000
0.656570 0.250085 0.000000
0.687626 0.250907 0.000001
0.718798 0.250339 0.000000
0.750000 0.250002 0.000000
0.781250 0.250000 0.000000
0.812500 0.250001 0.000000
0.843750 0.249998 0.000000
0.875000 0.250002 0.000004
0.906241 0.250046 0.000086
0.937500 0.250000 0.000001
0.968750 0.250000 0.000000
1.000000 0.250000 0.000000
0.000000 0.281268 0.000001
0.031246 0.281252 0.000000
0.062500 0.281230 0.000000
0.093434 0.280989 0.000003
0.119391 0.272509 0.000049
0.154529 0.259898 0.000000
0.189324 0.259405 0.000000
0.214670 0.260686 0.000000
0.244540 0.264830 0.000000
0.278425 0.274999 0.000000
0.307476 0.275525 0.000000
0.340072 0.277905 0.000000
0.373589 0.279756 0.000000
0.405150 0.279165 0.000000
0.437273 0.280820 0.000000
0.468403 0.280880 0.000000
0.499725 0.280981 0.000000
0.531227 0.281195 0.000000
0.562443 0.281251 0.000000
0.593533 0.281179 0.000000
0.625020 0.281217 0.000000
0.656465 0.281300 0.000002
0.687506 0.281254 0.000006
0.718753 0.281250 0.000000
0.750000 0.281251 0.000001
0.781237 0.281465 0.000000
0.812466 0.281804 0.000000
0.843749 0.281261 0.000000
0.874999 0.281254 0.000011
0.906226 0.281368 0.000215
0.937500 0.281252 0.000001
0.968750 0.281250 0.000000
1.000000 0.281250 0.000000
0.000001 0.312505 0.000001
0.031250 0.312502 0.000000
0.062511 0.312514 0.000001
0.093745 0.312516 0.000003
0.123207 0.310429 0.000014
0.152832 0.303490 0.000000
0.189624 0.294008 0.000000
0.223363 0.291683 0.000000
0.250993 0.302098 0.000000
0.281786 0.304372 0.000000
0.311603 0.308692 0.000000
0.341076 0.309215 0.000000
0.372889 0.310512 0.000000
0.404305 0.310717 0.000000
0.436514 0.310746 0.000000
0.468658 0.312045 0.000000
0.499891 0.310820 0.000013
0.531344 0.311380 0.000000
0.562531 0.312309 0.000001
0.593764 0.312338 0.000000
0.624998 0.312501 0.000000
0.656251 0.312501 0.000003
0.687496 0.312498 0.000006
0.718750 0.312499 0.000000
0.749999 0.312499 0.000005
0.781260 0.312879 0.000003
0.812529 0.314035 0.000000
0.843628 0.313053 0.000000
0.874998 0.312502 0.000000
0.906251 0.312496 0.000000
0.937501 0.312496 0.000000
0.968750 0.312500 0.000000
1.000000 0.312500 0.000000
0.000000 0.343750 0.000000
0.031257 0.343745 0.000005
0.062498 0.343754 0.000001
0.093754 0.343762 0.000000
0.124972 0.343713 0.000004
0.155150 0.340457 0.000000
0.186874 0.332392 0.000000
0.221875 0.327076 0.000718
0.253514 0.334192 0.000000
0.285380 0.332255 0.000000
0.313862 0.338434 0.000000
0.343486 0.341104 0.000000
0.373045 0.341372 0.000000
0.404853 0.342404 0.000000
0.436777 0.342816 0.000000
0.468731 0.343709 0.000000
0.500007 0.343685 0.000012
0.531282 0.343427 0.000025
0.562548 0.343290 0.000024
0.593809 0.343296 0.000011
0.625005 0.343737 0.000000
0.656246 0.343753 0.000000
0.687504 0.343747 0.000005
0.718754 0.343748 0.000000
0.750000 0.343748 0.000001
0.781281 0.343901 0.000012
0.812554 0.344971 0.000005
0.843542 0.344672 0.000000
0.874997 0.343758 0.000001
0.906251 0.343744 0.000000
0.937501 0.343748 0.000000
0.968750 0.343750 0.000000
0.999999 0.343750 0.000000
0.000000 0.375000 0.000000
0.031250 0.375000 0.000000
0.062500 0.375000 0.000000
0.093750 0.375002 0.000000
0.125009 0.375005 0.000000
0.156354 0.374551 0.000000
0.187261 0.372926 0.000000
0.216525 0.366821 0.000937
0.248745 0.364364 0.008448
0.283313 0.364859 0.013173
0.314665 0.367917 0.006159
0.345712 0.368463 0.004436
0.374762 0.372366 0.000500
0.405514 0.373702 0.000000
0.437132 0.374532 0.000000
0.468750 0.375005 0.000014
0.500000 0.374989 0.000000
0.531243 0.374961 0.000000
0.562514 0.374971 0.000009
0.594967 0.372955 0.000017
0.625487 0.374194 0.000001
0.656273 0.374983 0.000000
0.688247 0.374627 0.000003
0.719156 0.374797 0.000002
0.750000 0.374998 0.000005
0.781245 0.375001 0.000010
0.812500 0.375011 0.000004
0.843748 0.375011 0.000000
0.875001 0.374997 0.000008
0.906251 0.374997 0.000007
0.937500 0.375000 0.000000
0.968750 0.375000 0.000000
1.000000 0.375000 0.000000
0.000000 0.406250 0.000000
0.031250 0.406250 0.000000
0.062500 0.406250 0.000000
0.093750 0.406250 0.000000
0.125000 0.406250 0.000000
0.156258 0.406257 0.000000
0.187501 0.406241 0.000000
0.218034 0.405343 0.000000
0.245024 0.401599 0.003858
0.277476 0.401277 0.013942
0.312515 0.402166 0.010472
0.345226 0.401001 0.007378
0.375385 0.403096 0.002834
0.405538 0.404342 0.000000
0.437200 0.405432 0.000000
0.468751 0.406238 0.000008
0.499992 0.406087 0.000000
0.531196 0.405739 0.000000
0.562517 0.406219 0.000000
0.595183 0.403956 0.000000
0.625483 0.405487 0.000000
0.657204 0.405553 0.000004
0.688630 0.405643 0.000001
0.719259 0.405996 0.000000
0.750003 0.406249 0.000000
0.781248 0.406250 0.000001
0.812499 0.406246 0.000000
0.843751 0.406247 0.000000
0.875000 0.406250 0.000000
0.906250 0.406250 0.000000
0.937500 0.406250 0.000000
0.968750 0.406250 0.000000
1.000000 0.406250 0.000000
0.000000 0.437500 0.000000
0.031250 0.437500 0.000000
0.062500 0.437500 0.000000
0.093750 0.437500 0.000000
0.125000 0.437500 0.000000
0.156250 0.437502 0.000000
0.187504 0.437509 0.000000
0.218748 0.437503 0.000000
0.249109 0.436799 0.000160
0.276040 0.435430 0.002823
0.307298 0.435271 0.011091
0.342787 0.435308 0.009936
0.374675 0.436062 0.003722
0.406157 0.435683 0.001267
0.437436 0.435212 0.000000
0.468772 0.437060 0.000000
0.500019 0.437345 0.000000
0.531150 0.436854 0.000000
0.562502 0.437469 0.000000
0.594141 0.436819 0.000000
0.625102 0.437316 0.000000
0.656502 0.437322 0.000000
0.689359 0.436590 0.000000
0.719095 0.437340 0.000000
0.749998 0.437501 0.000000
0.781249 0.437501 0.000001
0.812502 0.437499 0.000000
0.843758 0.437498 0.000000
0.875000 0.437500 0.000001
0.906250 0.437500 0.000000
0.937500 0.437500 0.000000
0.968750 0.437500 0.000000
1.000000 0.437500 0.000000
0.000000 0.468750 0.000000
0.031250 0.468750 0.000000
0.062500 0.468750 0.000000
0.093750 0.468750 0.000000
0.125000 0.468750 0.000000
0.156250 0.468750 0.000000
0.187500 0.468750 0.000000
0.218757 0.468754 0.000000
0.250008 0.468753 0.000000
0.279872 0.468499 0.000845
0.304601 0.467928 0.008715
0.335216 0.467190 0.024879
0.370919 0.467611 0.022044
0.404810 0.467123 0.011604
0.437137 0.467599 0.004210
0.468666 0.467902 0.000394
0.499862 0.467700 0.000000
0.531216 0.468466 0.000000
0.562492 0.467992 0.000000
0.593757 0.468693 0.000000
0.624984 0.468759 0.000003
0.656429 0.468659 0.000000
0.692861 0.466131 0.000000
0.719637 0.468337 0.000000
0.749994 0.468753 0.000000
0.781320 0.468733 0.000000
0.812652 0.468711 0.000000
0.843752 0.468749 0.000000
0.874999 0.468750 0.000001
0.906250 0.468750 0.000000
0.937498 0.468749 0.000000
0.968749 0.468750 0.000000
1.000000 0.468750 0.000000
0.000000 0.500000 0.000000
0.031250 0.500000 0.000000
0.062500 0.500000 0.000000
0.093750 0.500000 0.000000
0.125000 0.500000 0.000000
0.156250 0.500000 0.000000
0.187500 0.500000 0.000000
0.218750 0.500000 0.000000
0.250007 0.500003 0.000000
0.281258 0.500003 0.000000
0.311523 0.499999 0.001089
0.337491 0.500105 0.016132
0.365699 0.500124 0.033644
0.398958 0.499523 0.029003
0.433692 0.498931 0.017854
0.467086 0.498169 0.008365
0.499708 0.498867 0.000000
0.531132 0.499607 0.000000
0.562648 0.499111 0.000000
0.593768 0.499895 0.000000
0.625003 0.499988 0.000000
0.656275 0.499987 0.000000
0.687723 0.499887 0.000000
0.718776 0.499987 0.000000
0.750000 0.500000 0.000000
0.781383 0.499966 0.000000
0.812777 0.499929 0.000000
0.843753 0.499999 0.000000
0.874999 0.500000 0.000000
0.906250 0.500000 0.000001
0.937506 0.500002 0.000023
0.968754 0.500001 0.000016
1.000000 0.499998 0.000000
0.000000 0.531250 0.000000
0.031237 0.531251 0.000000
0.062500 0.531250 0.000000
0.093750 0.531250 0.000000
0.125000 0.531250 0.000000
0.156250 0.531250 0.000000
0.187500 0.531250 0.000000
0.218750 0.531250 0.000000
0.250000 0.531250 0.000000
0.281256 0.531251 0.000000
0.312524 0.531253 0.000000
0.343605 0.531266 0.000392
0.371570 0.531382 0.010060
0.394030 0.531435 0.037590
0.427849 0.530530 0.031978
0.461939 0.530190 0.023677
0.496854 0.530600 0.014973
0.531001 0.530772 0.000000
0.562513 0.531232 0.000000
0.593902 0.530689 0.000000
0.625013 0.531208 0.000000
0.656288 0.531217 0.000000
0.687504 0.531248 0.000000
0.718754 0.531248 0.000000
0.749993 0.531253 0.000006
0.781251 0.531250 0.000000
0.812503 0.531249 0.000000
0.843750 0.531250 0.000000
0.874998 0.531249 0.000000
0.906259 0.531253 0.000030
0.938097 0.531457 0.002254
0.969167 0.531395 0.001581
1.000000 0.531247 0.000000
0.000000 0.562500 0.000000
0.031249 0.562500 0.000000
0.062500 0.562500 0.000000
0.093750 0.562500 0.000000
0.125000 0.562500 0.000000
0.156250 0.562500 0.000000
0.187500 0.562500 0.000000
0.218750 0.562500 0.000000
0.250000 0.562500 0.000000
0.281250 0.562500 0.000000
0.312506 0.562500 0.000000
0.343779 0.562500 0.000000
0.374646 0.562515 0.000937
0.402527 0.562623 0.011442
0.419494 0.563238 0.049523
0.451302 0.563493 0.060178
0.489233 0.562653 0.042168
0.530511 0.562433 0.003515
0.562506 0.562491 0.000030
0.593762 0.562460 0.000000
0.625005 0.562494 0.000001
0.656411 0.562360 0.000000
0.687525 0.562487 0.000000
0.718747 0.562501 0.000004
0.749993 0.562503 0.000006
0.781249 0.562500 0.000001
0.812499 0.562500 0.000001
0.843750 0.562500 0.000000
0.874998 0.562499 0.000000
0.906258 0.562503 0.000029
0.938183 0.562738 0.002590
0.969230 0.562667 0.001821
1.000000 0.562500 0.000001
0.000000 0.593750 0.000000
0.031250 0.593750 0.000000
0.062500 0.593750 0.000000
0.093750 0.593750 0.000000
0.125000 0.593750 0.000000
0.156250 0.593750 0.000000
0.187500 0.593750 0.000000
0.218750 0.593750 0.000000
0.250000 0.593750 0.000000
0.281250 0.593750 0.000000
0.312500 0.593750 0.000000
0.343751 0.593750 0.000000
0.375013 0.593749 0.000000
0.406118 0.593754 0.000429
0.435068 0.593884 0.008629
0.455495 0.594654 0.043940
0.490218 0.594149 0.038107
0.529356 0.593741 0.008131
0.562454 0.593650 0.001271
0.593775 0.593737 0.000005
0.624995 0.593754 0.000016
0.656249 0.593749 0.000000
0.687540 0.593729 0.000000
0.718732 0.593756 0.000024
0.749999 0.593750 0.000001
0.781250 0.593750 0.000000
0.812495 0.593751 0.000003
0.843749 0.593750 0.000001
0.875000 0.593750 0.000000
0.906245 0.593750 0.000000
0.937504 0.593752 0.000025
0.968752 0.593751 0.000018
1.000000 0.593750 0.000000
0.000000 0.625000 0.000000
0.031250 0.625000 0.000000
0.062500 0.625000 0.000000
0.093750 0.625000 0.000000
0.125000 0.625000 0.000000
0.156250 0.625000 0.000000
0.187500 0.625000 0.000000
0.218750 0.625000 0.000000
0.250000 0.625000 0.000000
0.281250 0.625000 0.000000
0.312500 0.625000 0.000000
0.343750 0.625000 0.000000
0.375005 0.625000 0.000000
0.406272 0.624999 0.000000
0.437546 0.624999 0.000000
0.468591 0.625011 0.000621
0.495223 0.625111 0.019117
0.523770 0.624927 0.034193
0.561826 0.624048 0.020589
0.594354 0.624500 0.008479
0.625022 0.624992 0.000191
0.656257 0.625003 0.000015
0.687735 0.624910 0.000000
0.718794 0.624987 0.000000
0.750013 0.624997 0.000000
0.781247 0.625000 0.000000
0.812482 0.625004 0.000011
0.843745 0.625001 0.000003
0.874999 0.625000 0.000000
0.906245 0.625000 0.000002
0.937498 0.624999 0.000000
0.968748 0.624999 0.000000
1.000000 0.625000 0.000000
0.000000 0.656250 0.000000
0.031250 0.656250 0.000000
0.062500 0.656250 0.000000
0.093750 0.656250 0.000000
0.125000 0.656250 0.000000
0.156250 0.656250 0.000000
0.187500 0.656250 0.000000
0.218750 0.656250 0.000000
0.250000 0.656250 0.000000
0.281250 0.656250 0.000000
0.312500 0.656250 0.000000
0.343750 0.656250 0.000000
0.375000 0.656250 0.000000
0.406251 0.656250 0.000000
0.437510 0.656249 0.000000
0.468793 0.656247 0.000000
0.499866 0.656253 0.000543
0.530659 0.656287 0.002800
0.559109 0.656913 0.027562
0.590582 0.657366 0.038081
0.624997 0.656300 0.002272
0.657547 0.656143 0.002984
0.688005 0.656220 0.001039
0.719023 0.656225 0.000003
0.750072 0.656234 0.000000
0.781235 0.656250 0.000007
0.812512 0.656249 0.000000
0.843725 0.656251 0.000000
0.875001 0.656251 0.000021
0.907635 0.656361 0.002382
0.937716 0.656267 0.000370
0.968748 0.656250 0.000000
0.999999 0.656250 0.000000
0.000000 0.687500 0.000000
0.031250 0.687500 0.000000
0.062500 0.687500 0.000000
0.093750 0.687500 0.000000
0.125000 0.687500 0.000000
0.156250 0.687500 0.000000
0.187500 0.687500 0.000000
0.218750 0.687500 0.000000
0.250000 0.687500 0.000000
0.281250 0.687500 0.000000
0.312500 0.687500 0.000000
0.343750 0.687500 0.000000
0.375000 0.687500 0.000000
0.406250 0.687500 0.000000
0.437500 0.687500 0.000000
0.468751 0.687500 0.000000
0.500017 0.687499 0.000000
0.531267 0.687501 0.000000
0.562004 0.687681 0.003071
0.592222 0.688094 0.012312
0.625119 0.687655 0.002069
0.658072 0.687458 0.004827
0.688658 0.687476 0.002213
0.720514 0.687483 0.000584
0.750115 0.687513 0.000000
0.782064 0.687611 0.000000
0.812569 0.687501 0.000000
0.843732 0.687499 0.000000
0.875388 0.687523 0.000595
0.911046 0.687882 0.008045
0.938138 0.687551 0.001085
0.968742 0.687499 0.000000
0.999998 0.687497 0.000000
0.000000 0.718750 0.000000
0.031250 0.718750 0.000000
0.062500 0.718750 0.000000
0.093750 0.718750 0.000000
0.125000 0.718750 0.000000
0.156250 0.718750 0.000000
0.187500 0.718750 0.000000
0.218750 0.718750 0.000000
0.250000 0.718750 0.000000
0.281250 0.718750 0.000000
0.312500 0.718750 0.000000
0.343750 0.718750 0.000000
0.375000 0.718750 0.000000
0.406250 0.718750 0.000000
0.437500 0.718750 0.000000
0.468750 0.718750 0.000000
0.500001 0.718750 0.000000
0.531252 0.718750 0.000000
0.562503 0.718747 0.000000
0.593742 0.718763 0.000133
0.625552 0.719671 0.010732
0.657760 0.719900 0.014472
0.689438 0.719438 0.012865
0.720595 0.719049 0.001757
0.753309 0.719222 0.001059
0.786966 0.719472 0.000000
0.813689 0.718882 0.000000
0.843778 0.718750 0.000025
0.878203 0.718913 0.004538
0.912923 0.719236 0.010277
0.937942 0.718787 0.000712
0.968733 0.718749 0.000000
0.999998 0.718749 0.000000
0.000000 0.750000 0.000000
0.031250 0.750000 0.000000
0.062500 0.750000 0.000000
0.093750 0.750000 0.000000
0.125000 0.750000 0.000000
0.156250 0.750000 0.000000
0.187500 0.750000 0.000000
0.218750 0.750000 0.000000
0.250000 0.750000 0.000000
0.281250 0.750000 0.000000
0.312500 0.750000 0.000000
0.343750 0.750000 0.000000
0.375000 0.750000 0.000000
0.406250 0.750000 0.000000
0.437500 0.750000 0.000000
0.468750 0.750000 0.000000
0.500000 0.750000 0.000000
0.531250 0.750000 0.000000
0.562502 0.749999 0.000000
0.593755 0.750001 0.000000
0.625051 0.750281 0.003276
0.656486 0.750234 0.003169
0.690533 0.751186 0.020200
0.721774 0.751192 0.018449
0.754368 0.750716 0.011818
0.783776 0.750367 0.005269
0.812930 0.750047 0.000059
0.843777 0.750002 0.000000
0.875036 0.750002 0.000058
0.906292 0.750004 0.000069
0.937494 0.750000 0.000000
0.968749 0.750000 0.000000
1.000000 0.749999 0.000000
0.000000 0.781250 0.000000
0.031250 0.781250 0.000000
0.062500 0.781250 0.000000
0.093750 0.781250 0.000000
0.125000 0.781250 0.000000
0.156250 0.781250 0.000000
0.187500 0.781250 0.000000
0.218750 0.781250 0.000000
0.250000 0.781250 0.000000
0.281250 0.781250 0.000000
0.312500 0.781250 0.000000
0.343750 0.781250 0.000000
0.375000 0.781250 0.000000
0.406250 0.781250 0.000000
0.437500 0.781250 0.000000
0.468750 0.781250 0.000000
0.500000 0.781250 0.000000
0.531250 0.781250 0.000000
0.562500 0.781250 0.000000
0.593750 0.781250 0.000000
0.624998 0.781250 0.000000
0.656245 0.781243 0.000000
0.687775 0.781429 0.002411
0.720722 0.783675 0.024102
0.756934 0.782849 0.029452
0.786632 0.782172 0.018769
0.817564 0.781693 0.008467
0.843845 0.781255 0.000071
0.874982 0.781249 0.000000
0.906199 0.781248 0.000000
0.937490 0.781250 0.000000
0.968750 0.781250 0.000000
1.000000 0.781250 0.000000
0.000000 0.812500 0.000000
0.031250 0.812500 0.000000
0.062500 0.812500 0.000000
0.093750 0.812500 0.000000
0.125000 0.812500 0.000000
0.156250 0.812500 0.000000
0.187500 0.812500 0.000000
0.218750 0.812500 0.000000
0.250000 0.812500 0.000000
0.281250 0.812500 0.000000
0.312500 0.812500 0.000000
0.343750 0.812500 0.000000
0.375000 0.812500 0.000000
0.406250 0.812500 0.000000
0.437500 0.812500 0.000000
0.468750 0.812500 0.000000
0.500000 0.812500 0.000000
0.531250 0.812500 0.000000
0.562500 0.812500 0.000000
0.593750 0.812500 0.000000
0.625000 0.812499 0.000000
0.656250 0.812494 0.000000
0.687483 0.812557 0.000310
0.718533 0.814155 0.009988
0.750745 0.812711 0.003726
0.782951 0.812719 0.005338
0.819435 0.813030 0.008806
